!!!!SEGMENT: pl-cz--iii-594--006_rzepko-adolf--missa-agnus.krn
!!!cenid: 18xx:1044
!!!COM: Rzepko, Adolf
!!!COM-rismID: pe30020315
!!!CDT: 1825-1892
!!!CNT: Polish
!!!OPR: Missa
!!!OTL: Agnus
!!!OMV: 006
!!!PDT:
!!!AGN: Sacred; Mass
!!!SMS-siglum: PL-CZ
!!!SMS-shelfmark: III-594
!!!SMS-shelfwork: 001-006 M
!!!SMS-variant:
!!!SMS-altvar:
!!!NIFC-rismSourceID: 300001136
!!!NIFC-rismChildID: 300001136
!!!NIFC-islandoraID:
!!!URL-pdf-islandora:
!!!URL-scan:
!!!IIIF:
!!!ONB-nifc: UWAGA: części Mszy: Kyrie, Gloria, Credo, Sanctus, Benedictus, Agnus
!!!AIN: 6 empty 1 organ 2 violn
!!!key: c
**kern	**fba	**dynam	**kern	**dynam	**kern	**dynam	**kern	**dynam	**kern	**text	**kern	**kern	**kern	**kern	**dynam
*part9	*part9	*part9	*part8	*part8	*part7	*part7	*part6	*part6	*part5	*part5	*part4	*part3	*part2	*part1	*part1
*staff9	*	*	*staff8	*	*staff7	*	*staff6	*	*staff5	*staff5	*staff4	*staff3	*staff2	*staff1	*
*Iorgan	*	*	*Iempty	*	*Ivioln	*	*Ivioln	*	*Iempty	*	*Iempty	*Iempty	*Iempty	*Iempty	*
*I"Organo	*	*	*I"Violino in Fo	*	*I"Violino 2do	*	*I"Violino 1o	*	*I"Sopran._	*	*I"Clarino II in C_	*I"Clarino 1mo in C	*I"Clarinetto in C.	*I"Flauto no2	*
*I'Organo	*	*	*I'Vl in F	*	*I'Vl II	*	*I'Vl I	*	*I'S	*	*I'Clno	*I'Clno	*I'Cl	*I'Fl	*
*ICklav	*	*	*ICstr	*	*ICstr	*	*ICstr	*	*ICvox	*	*ICbras	*ICbras	*ICww	*ICww	*
*clefF4	*	*	*clefG2	*	*clefG2	*	*clefG2	*	*clefC1	*	*clefG2	*clefG2	*clefG2	*clefG2	*
*	*	*	*ITrd4c7	*	*	*	*	*	*	*	*	*	*	*	*
*k[b-e-a-]	*	*	*k[b-e-a-]	*	*k[b-e-a-]	*	*k[b-e-a-]	*	*k[b-e-a-]	*	*	*	*k[b-e-a-]	*k[b-e-a-]	*
*c:	*	*	*c:	*	*c:	*	*c:	*	*c:	*	*c:	*c:	*c:	*c:	*
*M4/4	*	*	*M4/4	*	*M4/4	*	*M4/4	*	*M4/4	*	*	*	*M4/4	*M4/4	*
*met(c)	*	*	*met(c)	*	*met(c)	*	*met(c)	*	*met(c)	*	*	*	*met(c)	*met(c)	*
*	*	*	*	*	*	*below	*	*below	*	*	*	*	*	*	*
=1	=1	=1	=1	=1	=1	=1	=1	=1	=1	=1	=1	=1	=1	=1	=1
*	*	*	*	*	*	*	*tremolo	*	*	*	*	*	*	*	*
!	!	!	!	!	!LO:TX:a:rj:t=Lento	!	!	!	!LO:TX:a:rj:t=Lento	!	!	!	!	!LO:TX:t=P:all\right-global:problem	!
!LO:TX:b:t=Agnus	!	!	!LO:TX:a:rj:t=Lento	!LO:DY:rj	!	!	!LO:TX:a:rj:t=Lento	!LO:HP:a	!	!	!	!	!	!LO:TX:a:t=20	!
!LO:TX:a:rj:t=Lento sempr&colon; tasto Solo	!	!	!	!	!LO:TX:a:t=1	!	!	!	!LO:TX:a:t=4	!	!LO:TX:a:t=Tacet	!LO:TX:a:t=Tacet	!LO:TX:a:rj:t=Lento	!LO:TX:a:rj:t=Lento	!
2C/	.	.	2C/	f	1r	.	8c/L	mf <	00r	.	1ryy	1ryy	00r	1r	.
.	.	.	.	.	.	.	8c/	.	.	.	.	.	.	.	.
.	.	.	.	.	.	.	8c/	.	.	.	.	.	.	.	.
.	.	.	.	.	.	.	8c/J	.	.	.	.	.	.	.	.
2E-\	.	.	2E-/	.	.	.	8c/L	.	.	.	.	.	.	.	.
.	.	.	.	.	.	.	8c/	.	.	.	.	.	.	.	.
.	.	.	.	.	.	.	8c/	.	.	.	.	.	.	.	.
.	.	.	.	.	.	.	8c/J	.	.	.	.	.	.	.	.
=2	=2	=2	=2	=2	=2	=2	=2	=2	=2	=2	=2	=2	=2	=2	=2
*2\right	*	*	*	*	*tremolo	*below	*	*	*	*	*	*	*	*	*
!	!	!	!	!	!	!LO:DY:rj	!	!	!	!	!	!	!	!	!
2.A-\	.	.	2.A-/	.	8c/L	mf	8d/L	.	.	.	1ryy	1ryy	.	1r	.
.	.	.	.	.	8c/	.	8d/	.	.	.	.	.	.	.	.
.	.	.	.	.	8c/	.	8d/	.	.	.	.	.	.	.	.
.	.	.	.	.	8c/J	.	8d/J	.	.	.	.	.	.	.	.
.	.	.	.	.	8c/L	.	8d/L	[[	.	.	.	.	.	.	.
.	.	.	.	.	8c/	.	8d/	.	.	.	.	.	.	.	.
8.A-\L	.	.	8.A-/L	.	8c/	.	8d/	.	.	.	.	.	.	.	.
.	.	.	.	.	8c/J	.	8d/J	.	.	.	.	.	.	.	.
16A-\Jk	.	.	16A-/Jk	.	.	.	.	.	.	.	.	.	.	.	.
=3	=3	=3	=3	=3	=3	=3	=3	=3	=3	=3	=3	=3	=3	=3	=3
2G\	.	.	2G/	.	8Bn/L	.	8d/L	.	.	.	1ryy	1ryy	.	1r	.
.	.	.	.	.	8Bn/	.	8d/	.	.	.	.	.	.	.	.
.	.	.	.	.	8Bn/	.	8d/	.	.	.	.	.	.	.	.
.	.	.	.	.	8Bn/J	.	8d/J	.	.	.	.	.	.	.	.
2G\	.	.	2G/	.	8d/ 8B/L	.	8f/L	.	.	.	.	.	.	.	.
.	.	.	.	.	8d/ 8B/	.	8f/	.	.	.	.	.	.	.	.
.	.	.	.	.	8d/ 8B/	.	8f/	.	.	.	.	.	.	.	.
.	.	.	.	.	8d/ 8B/J	.	8f/J	.	.	.	.	.	.	.	.
*	*	*	*	*	*	*	*Xtremolo	*	*	*	*	*	*	*	*
=4	=4	=4	=4	=4	=4	=4	=4	=4	=4	=4	=4	=4	=4	=4	=4
!	!	!	!	!	!	!	!	!LO:HP:a	!	!	!	!	!	!	!
[4C\	.	.	4C/	.	8c/L	.	2e-/ 2G/	>	.	.	1ryy	1ryy	.	1r	.
.	.	.	.	.	8c/	.	.	.	.	.	.	.	.	.	.
16C\LL]	.	.	16C/LL	.	8c/	.	.	.	.	.	.	.	.	.	.
16A-\	.	.	16A-/	.	.	.	.	.	.	.	.	.	.	.	.
16G\	.	.	16G/	.	8c/J	.	.	.	.	.	.	.	.	.	.
16E-\JJ	.	.	16E-/JJ	.	.	.	.	.	.	.	.	.	.	.	.
4C/	.	.	4C/	.	4c/	.	4e-/ 4G/	.	.	.	.	.	.	.	.
4r	.	.	4r	.	4r	.	4r	]	.	.	.	.	.	.	.
=5	=5	=5	=5	=5	=5	=5	=5	=5	=5	=5	=5	=5	=5	=5	=5
*	*	*	*	*	*	*	*	*	*2\right	*	*	*	*	*	*
!	!	!	!	!	!	!LO:DY:rj	!	!	!	!	!	!	!	!	!
2C/	.	.	8r	p	8r	p	8r	p	2g\	A-	1ryy	1ryy	00r	1r	.
*	*	*	*tremolo	*	*	*	*tremolo	*	*	*	*	*	*	*	*
.	.	.	8G/L	.	8c/L	.	8e-/L	.	.	.	.	.	.	.	.
.	.	.	8G/	.	8c/	.	8e-/	.	.	.	.	.	.	.	.
.	.	.	8G/J	.	8c/J	.	8e-/J	.	.	.	.	.	.	.	.
2E-/	.	.	8r	.	8r	.	8r	.	(4.g\	-gnus	.	.	.	.	.
.	.	.	8G/L	.	8c/L	.	8g/L	.	.	.	.	.	.	.	.
.	.	.	8G/	.	8c/	.	8g/	.	.	.	.	.	.	.	.
.	.	.	8G/J	.	8c/J	.	8g/J	.	8cc\)	.	.	.	.	.	.
*	*	*	*	*	*Xtremolo	*	*	*	*	*	*	*	*	*	*
=6	=6	=6	=6	=6	=6	=6	=6	=6	=6	=6	=6	=6	=6	=6	=6
2D/	.	.	8r	.	8r	.	8r	.	2cc\	de-	1ryy	1ryy	.	1r	.
.	.	.	8A-/L	.	4.c/	.	8f/L	.	.	.	.	.	.	.	.
.	.	.	8A-/	.	.	.	8f/	.	.	.	.	.	.	.	.
.	.	.	8A-/J	.	.	.	8f/J	.	.	.	.	.	.	.	.
*	*	*	*	*	*	*	*Xtremolo	*	*	*	*	*	*	*	*
4GG/	.	.	8r	.	8r	.	8r	.	4bn\	-i	.	.	.	.	.
.	.	.	8G/	.	8Bn/	.	8f/	.	.	.	.	.	.	.	.
4GG/	.	.	8r	.	8r	.	8r	.	4cc\	qui	.	.	.	.	.
.	.	.	8G/	.	8c/	.	8e-/	.	.	.	.	.	.	.	.
!	!	!	!	!	!LO:LB:g=original	!	!	!	!	!	!	!	!	!	!
=7	=7	=7	=7	=7	=7	=7	=7	=7	=7	=7	=7	=7	=7	=7	=7
2GG/	.	.	8r	.	8r	.	8r	.	2dd\	tol-	1ryy	1ryy	.	1r	.
*	*	*	*	*	*tremolo	*	*tremolo	*	*	*	*	*	*	*	*
.	.	.	8G/L	.	8Bn/L	.	8f/L	.	.	.	.	.	.	.	.
.	.	.	8G/	.	8Bn/	.	8f/	.	.	.	.	.	.	.	.
.	.	.	8G/J	.	8Bn/J	.	8f/J	.	.	.	.	.	.	.	.
4D/	.	.	8r	.	8r	.	8r	.	(8dd\L	-lis	.	.	.	.	.
.	.	.	8G/L	.	8B/L	.	8f/L	.	16ee-\L	.	.	.	.	.	.
.	.	.	.	.	.	.	.	.	16ff\JJ)	.	.	.	.	.	.
4GG/	.	.	8G/	.	8B/	.	8f/	.	(8ee-\L	pec-	.	.	.	.	.
.	.	.	8G/J	.	8B/J	.	8f/J	.	8dd\J)	.	.	.	.	.	.
!LO:LB:g=original	!	!	!	!	!	!	!	!	!	!	!	!	!	!	!
=8	=8	=8	=8	=8	=8	=8	=8	=8	=8	=8	=8	=8	=8	=8	=8
*	*	*	*rep	*	*	*	*	*	*	*	*	*	*	*	*
2C/	.	.	8r	.	8r	.	8r	.	([4dd\	-ca-	1ryy	1ryy	.	1r	.
.	.	.	8G/L	.	8Bn/L	.	8f/L	.	.	.	.	.	.	.	.
.	.	.	8G/	.	8Bn/	.	8f/	.	16dd\LL]	.	.	.	.	.	.
.	.	.	.	.	.	.	.	.	16ee-\	.	.	.	.	.	.
.	.	.	8G/J	.	8Bn/J	.	8f/J	.	16bn\	.	.	.	.	.	.
.	.	.	.	.	.	.	.	.	16dd\JJ)	.	.	.	.	.	.
2C/	.	.	8r	.	8r	.	8r	.	4cc\	-ta	.	.	.	.	.
.	.	.	8G/L	.	8c/L	.	8e-/L	.	.	.	.	.	.	.	.
.	.	.	8G/	.	8c/	.	8e-/	.	4r	.	.	.	.	.	.
.	.	.	8G/J	.	8c/J	.	8e-/J	.	.	.	.	.	.	.	.
*	*	*	*Xrep	*	*	*	*	*	*	*	*	*	*	*	*
!	!	!	!	!	!	!	!	!	!LO:LB:g=original	!	!	!	!	!	!
=9	=9	=9	=9	=9	=9	=9	=9	=9	=9	=9	=9	=9	=9	=9	=9
2E-\	.	.	8r	.	8r	.	8r	.	2cc\	pec-	1ryy	1ryy	00r	1r	.
.	.	.	8G/L	.	8c/L	.	8g/L	.	.	.	.	.	.	.	.
.	.	.	8G/	.	8c/	.	8g/	.	.	.	.	.	.	.	.
.	.	.	8G/J	.	8c/J	.	8g/J	.	.	.	.	.	.	.	.
2En\	.	.	8r	.	8r	.	8r	.	4.cc\	-ca-	.	.	.	.	.
.	.	.	8B-/L	.	8c/L	.	8g/L	.	.	.	.	.	.	.	.
.	.	.	8B-/	.	8c/	.	8g/	.	.	.	.	.	.	.	.
.	.	.	8B-/J	.	8c/J	.	8g/J	.	8b-\	-ta	.	.	.	.	.
=10	=10	=10	=10	=10	=10	=10	=10	=10	=10	=10	=10	=10	=10	=10	=10
*	*	*	*	*	*rep	*	*	*	*	*	*	*	*	*	*
2F\	.	.	8r	.	8r	.	8r	.	2b-\	mun-	1ryy	1ryy	.	1r	.
.	.	.	8A-/L	.	8c/L	.	8f/L	.	.	.	.	.	.	.	.
.	.	.	8A-/	.	8c/	.	8f/	.	.	.	.	.	.	.	.
.	.	.	8A-/J	.	8c/J	.	8f/J	.	.	.	.	.	.	.	.
2F\	.	.	8r	.	8r	.	8r	.	2a-\	-di	.	.	.	.	.
.	.	.	8A-/L	.	8c/L	.	8f/L	.	.	.	.	.	.	.	.
.	.	.	8A-/	.	8c/	.	8f/	.	.	.	.	.	.	.	.
.	.	.	8A-/J	.	8c/J	.	8f/J	.	.	.	.	.	.	.	.
*	*	*	*	*	*Xrep	*	*	*	*	*	*	*	*	*	*
=11	=11	=11	=11	=11	=11	=11	=11	=11	=11	=11	=11	=11	=11	=11	=11
*	*	*	*rep	*	*	*	*	*	*	*	*	*	*	*	*
2D\	.	.	8r	.	8r	.	8r	.	2b-\	pec-	1ryy	1ryy	.	1r	.
.	.	.	8A-/L	.	8B-/L	.	8f/L	.	.	.	.	.	.	.	.
.	.	.	8A-/	.	8B-/	.	8f/	.	.	.	.	.	.	.	.
.	.	.	8A-/J	.	8B-/J	.	8f/J	.	.	.	.	.	.	.	.
2D\	.	.	8r	.	8r	.	8r	.	4.b-\	-ca-	.	.	.	.	.
.	.	.	8A-/L	.	8B-/L	.	8f/L	.	.	.	.	.	.	.	.
.	.	.	8A-/	.	8B-/	.	8f/	.	.	.	.	.	.	.	.
.	.	.	8A-/J	.	8B-/J	.	8f/J	.	8a-\	-ta	.	.	.	.	.
*	*	*	*Xrep	*	*	*	*	*	*	*	*	*	*	*	*
=12	=12	=12	=12	=12	=12	=12	=12	=12	=12	=12	=12	=12	=12	=12	=12
2E-\	.	.	8r	.	8r	.	8r	.	2a-\	mun-	1ryy	1ryy	.	1r	.
.	.	.	8B-/L	.	8e-/L	.	8g/L	.	.	.	.	.	.	.	.
.	.	.	8B-/	.	8e-/	.	8g/	.	.	.	.	.	.	.	.
.	.	.	8B-/J	.	8e-/J	.	8g/J	.	.	.	.	.	.	.	.
2E-\	.	.	8r	.	8r	.	8r	.	2g\	-di	.	.	.	.	.
.	.	.	8B-/L	.	8e-/L	.	8g/L	.	.	.	.	.	.	.	.
.	.	.	8B-/	.	8e-/	.	8g/	.	.	.	.	.	.	.	.
.	.	.	8B-/J	.	8e-/J	.	8g/J	.	.	.	.	.	.	.	.
*	*	*	*	*	*	*	*Xtremolo	*	*	*	*	*	*	*	*
!	!	!	!	!	!	!	!LO:LB:g=original	!	!	!	!	!	!	!	!
=13	=13	=13	=13	=13	=13	=13	=13	=13	=13	=13	=13	=13	=13	=13	=13
*	*	*	*	*	*	*	*2\right	*	*	*	*	*	*	*	*
!	!	!	!	!	!	!	!LO:TX:a:rj:t=Solo	!	!	!	!	!	!	!	!
2E-\	.	.	8r	.	8r	.	2gg\	.	4.g\	mi-	1ryy	1ryy	00r	1r	.
.	.	.	8e-\L	.	8g/ 8B-/L	.	.	.	.	.	.	.	.	.	.
.	.	.	8e-\	.	8g/ 8B-/	.	.	.	.	.	.	.	.	.	.
.	.	.	8e-\J	.	8g/ 8B-/J	.	.	.	8g\	-se-	.	.	.	.	.
2D\	.	.	8r	.	8r	.	2aant\	.	4an\	-re-	.	.	.	.	.
.	.	.	8d/ 8c/L	.	8an/ 8f#X/L	.	.	.	.	.	.	.	.	.	.
.	.	.	8d/ 8c/	.	8an/ 8f#X/	.	.	.	4a\	-re	.	.	.	.	.
.	.	.	8d/ 8c/J	.	8an/ 8f#X/J	.	.	.	.	.	.	.	.	.	.
=14	=14	=14	=14	=14	=14	=14	=14	=14	=14	=14	=14	=14	=14	=14	=14
2G\	.	.	8r	.	8r	.	2bb-\	.	2b-\	no-	1ryy	1ryy	.	1r	.
.	.	.	8d/L	.	8g/ 8B-/L	.	.	.	.	.	.	.	.	.	.
.	.	.	8d/	.	8g/ 8B-/	.	.	.	.	.	.	.	.	.	.
.	.	.	8d/J	.	8g/ 8B-/J	.	.	.	.	.	.	.	.	.	.
2G\	.	.	8r	.	8r	.	4gg\	.	2g\	-bis	.	.	.	.	.
.	.	.	8d/L	.	8g/ 8B-/L	.	.	.	.	.	.	.	.	.	.
.	.	.	8d/	.	8g/ 8B-/	.	4r	.	.	.	.	.	.	.	.
.	.	.	8d/J	.	8g/ 8B-/J	.	.	.	.	.	.	.	.	.	.
=15	=15	=15	=15	=15	=15	=15	=15	=15	=15	=15	=15	=15	=15	=15	=15
2G\	.	.	8r	.	8r	.	2bb-\	.	4.b-\	mi-	1ryy	1ryy	.	1r	.
.	.	.	8d/L	.	8g/ 8B-/L	.	.	.	.	.	.	.	.	.	.
.	.	.	8d/	.	8g/ 8B-/	.	.	.	.	.	.	.	.	.	.
.	.	.	8d/J	.	8g/ 8B-/J	.	.	.	8b-\	-se-	.	.	.	.	.
2F\	.	.	8r	.	8r	.	8ccc\L	.	4cc\	-re-	.	.	.	.	.
.	.	.	8e-/ 8c/L	.	8an/ 8f/L	.	16ddd\L	.	.	.	.	.	.	.	.
.	.	.	.	.	.	.	16ccc\JJ	.	.	.	.	.	.	.	.
.	.	.	8e-/ 8c/	.	8an/ 8f/	.	8bb-\L	.	4cc\	-re	.	.	.	.	.
.	.	.	8e-/ 8c/J	.	8an/ 8f/J	.	8ccc\J	.	.	.	.	.	.	.	.
=16	=16	=16	=16	=16	=16	=16	=16	=16	=16	=16	=16	=16	=16	=16	=16
2B-\	.	.	8r	.	8r	.	2.ddd\	.	2dd\	no-	1ryy	1ryy	.	1r	.
.	.	.	8f\L	.	8b-/ 8d/L	.	.	.	.	.	.	.	.	.	.
.	.	.	8f\	.	8b-/ 8d/	.	.	.	.	.	.	.	.	.	.
.	.	.	8f\J	.	8b-/ 8d/J	.	.	.	.	.	.	.	.	.	.
2A-\	.	.	8r	.	8r	.	.	.	4dd\	-bis	.	.	.	.	.
.	.	.	8f\L	.	8b-/ 8d/L	.	.	.	.	.	.	.	.	.	.
.	.	.	8f\	.	8b-/ 8d/	.	8ccc\L	.	4r	.	.	.	.	.	.
.	.	.	8f\J	.	8b-/ 8d/J	.	8ddd\J	.	.	.	.	.	.	.	.
=17	=17	=17	=17	=17	=17	=17	=17	=17	=17	=17	=17	=17	=17	=17	=17
!	!	!	!	!	!	!	!	!	!LO:TX:a:t=4	!	!	!	!	!	!
2G\	.	.	8r	.	8r	.	2eee-\	.	00r	.	1ryy	1ryy	00r	1r	.
.	.	.	8B-/L	.	8b-/ 8e-/L	.	.	.	.	.	.	.	.	.	.
.	.	.	8B-/	.	8b-/ 8e-/	.	.	.	.	.	.	.	.	.	.
.	.	.	8B-/J	.	8b-/ 8e-/J	.	.	.	.	.	.	.	.	.	.
2G\	.	.	8r	.	8r	.	8eee-\L	.	.	.	.	.	.	.	.
.	.	.	8B-/L	.	8b-/ 8e-/L	.	8bb-\	.	.	.	.	.	.	.	.
.	.	.	8B-/	.	8b-/ 8e-/	.	8aa-\	.	.	.	.	.	.	.	.
.	.	.	8B-/J	.	8b-/ 8e-/J	.	8gg\J	.	.	.	.	.	.	.	.
!	!	!	!LO:LB:g=original	!	!	!	!	!	!	!	!	!	!	!	!
=18	=18	=18	=18	=18	=18	=18	=18	=18	=18	=18	=18	=18	=18	=18	=18
2A-\	.	.	8r	.	8r	.	2gg\	.	.	.	1ryy	1ryy	.	1r	.
.	.	.	8c/L	.	8a-/ 8f/L	.	.	.	.	.	.	.	.	.	.
.	.	.	8c/	.	8a-/ 8f/	.	.	.	.	.	.	.	.	.	.
.	.	.	8c/J	.	8a-/ 8f/J	.	.	.	.	.	.	.	.	.	.
2A-\	.	.	8r	.	8r	.	8gg\L	.	.	.	.	.	.	.	.
.	.	.	8c/L	.	8a-/ 8f/L	.	8ff\	.	.	.	.	.	.	.	.
.	.	.	8c/	.	8a-/ 8f/	.	8cc\	.	.	.	.	.	.	.	.
.	.	.	8c/J	.	8a-/ 8f/J	.	8ff\J	.	.	.	.	.	.	.	.
=19	=19	=19	=19	=19	=19	=19	=19	=19	=19	=19	=19	=19	=19	=19	=19
2B-\	.	.	8r	.	8r	.	2ee-M\	.	.	.	1ryy	1ryy	.	1r	.
.	.	.	8e-\L	.	8e-/ 8B-/L	.	.	.	.	.	.	.	.	.	.
.	.	.	8e-\	.	8e-/ 8B-/	.	.	.	.	.	.	.	.	.	.
.	.	.	8e-\J	.	8e-/ 8B-/J	.	.	.	.	.	.	.	.	.	.
2BB-/	.	.	8r	.	8r	.	4.gg\	.	.	.	.	.	.	.	.
.	.	.	8d/L	.	8a-/ 8B-/L	.	.	.	.	.	.	.	.	.	.
.	.	.	8d/	.	8a-/ 8B-/	.	.	.	.	.	.	.	.	.	.
.	.	.	8d/J	.	8a-/ 8B-/J	.	8ff\	.	.	.	.	.	.	.	.
=20	=20	=20	=20	=20	=20	=20	=20	=20	=20	=20	=20	=20	=20	=20	=20
2E-\	.	.	8r	.	8r	.	2ff\	.	.	.	1ryy	1ryy	.	1r	.
.	.	.	8d/L	.	8a-/ 8B-/L	.	.	.	.	.	.	.	.	.	.
.	.	.	8d/	.	8a-/ 8B-/	.	.	.	.	.	.	.	.	.	.
.	.	.	8d/J	.	8a-/ 8B-/J	.	.	.	.	.	.	.	.	.	.
*	*	*	*Xtremolo	*	*Xtremolo	*	*	*	*	*	*	*	*	*	*
!	!	!	!	!	!	!	!LO:TX:a:t=piu mosso.	!	!	!	!	!	!	!	!
4E-\	.	.	4e-/	.	4g/ 4B-/	.	4ee-\	.	.	.	.	.	.	.	.
4r	.	.	4r	.	4r	.	4r	.	.	.	.	.	.	.	.
=21||	=21||	=21||	=21||	=21||	=21||	=21||	=21||	=21||	=21||	=21||	=21||	=21||	=21||	=21||	=21||
*k[bnenan]	*	*	*k[bnen]	*	*k[bnenan]	*	*k[bnenan]	*	*k[bnenan]	*	*	*	*k[bnenan]	*k[bnenan]	*
*M4/4	*	*	*	*	*	*	*	*	*	*	*	*	*	*M4/4	*
*met(c)	*	*	*	*	*	*	*	*	*	*	*	*	*	*met(c)	*
*tremolo	*	*	*tremolo	*	*tremolo	*	*	*	*	*	*	*	*	*	*
!LO:TX:a:rj:t=piu mosso&colon;	!	!	!LO:TX:a:rj:t=piu mosso	!	!LO:TX:a:rj:t=piu mosso	!	!	!	!LO:TX:a:t=8	!	!	!	!LO:TX:a:rj:t=piu mosso	!LO:TX:a:rj:t=piu mosso	!
8G\ 8GG\L	5 3	.	8d/ 8BnX/L	.	8g/ 8G/L	.	(16gg\LL	.	00r	.	1ryy	1ryy	16g/LL	(16gg\LL	.
.	.	.	.	.	.	.	16ff#X\	.	.	.	.	.	16f#X/	16ff#X\	.
8G\ 8GG\	.	.	8d/ 8BnX/	.	8g/ 8G/	.	16gg\	.	.	.	.	.	16g/	16gg\	.
.	.	.	.	.	.	.	16ff#\JJ	.	.	.	.	.	16f#/JJ	16ff#\JJ	.
*	*	*	*	*	*	*	*rep	*	*	*	*	*	*rep	*	*
8G\ 8GG\	.	.	8d/ 8BnX/	.	8g/ 8G/	.	16gg\LL	.	.	.	.	.	16g/LL	16gg\LL	.
.	.	.	.	.	.	.	16ff#\	.	.	.	.	.	16f#X/	16ff#X\	.
8G\ 8GG\J	.	.	8d/ 8BnX/J	.	8g/ 8G/J	.	16gg\	.	.	.	.	.	16g/	16gg\	.
.	.	.	.	.	.	.	16ff#\JJ)	.	.	.	.	.	16f#/JJ	16ff#\JJ)	.
*	*	*	*	*	*	*	*Xrep	*	*	*	*	*	*Xrep	*	*
*	*	*	*	*	*	*	*rep	*	*	*	*	*	*rep	*	*
8G\ 8GG\L	_ _	.	8d/ 8B/L	.	8g/ 8G/L	.	(16gg\LL	.	.	.	.	.	16g/LL	(16gg\LL	.
.	.	.	.	.	.	.	16ff#\	.	.	.	.	.	16f#X/	16ff#\	.
8G\ 8GG\	.	.	8d/ 8B/	.	8g/ 8G/	.	16gg\	.	.	.	.	.	16g/	16gg\	.
.	.	.	.	.	.	.	16ff#\JJ	.	.	.	.	.	16f#/JJ	16ff#\JJ	.
*	*	*	*	*	*	*	*Xrep	*	*	*	*	*	*Xrep	*	*
8G\ 8GG\	.	.	8d/ 8B/	.	8g/ 8G/	.	16gg\LL	.	.	.	.	.	16g/LL	16gg\LL	.
.	.	.	.	.	.	.	16aa\	.	.	.	.	.	16a/	16aa\	.
8G\ 8GG\J	.	.	8d/ 8B/J	.	8g/ 8G/J	.	16bb\	.	.	.	.	.	16b/	16bb\	.
.	x	.	.	.	.	.	16gg\JJ)	.	.	.	.	.	16a/JJ	16gg\JJ)	.
=22	=22	=22	=22	=22	=22	=22	=22	=22	=22	=22	=22	=22	=22	=22	=22
8G\ 8GG\L	#7 4 2	.	8d/ 8c/L	.	8a/ 8f#X/L	.	16aa\LL	.	.	.	1ryy	1ryy	16a/LL	16aa\LL	.
.	.	.	.	.	.	.	16gg#X\	.	.	.	.	.	16g#X/	16gg#X\	.
8G\ 8GG\	.	.	8d/ 8c/	.	8a/ 8f#X/	.	16aa\	.	.	.	.	.	16a/	16aa\	.
.	.	.	.	.	.	.	16gg#\JJ	.	.	.	.	.	16g#/JJ	16gg#\JJ	.
*	*	*	*	*	*	*	*rep	*	*	*	*	*	*rep	*rep	*
8G\ 8GG\	.	.	8d/ 8c/	.	8a/ 8f#X/	.	16aa\LL	.	.	.	.	.	16a/LL	16aa\LL	.
.	.	.	.	.	.	.	16gg#\	.	.	.	.	.	16g#X/	16gg#X\	.
8G\ 8GG\J	.	.	8d/ 8c/J	.	8a/ 8f#X/J	.	16aa\	.	.	.	.	.	16a/	16aa\	.
.	.	.	.	.	.	.	16gg#\JJ	.	.	.	.	.	16g#/JJ	16gg#\JJ	.
*	*	*	*	*	*	*	*Xrep	*	*	*	*	*	*Xrep	*Xrep	*
*	*	*	*	*	*	*	*rep	*	*	*	*	*	*rep	*rep	*
8G\ 8GG\L	_ _ _	.	8d/ 8c/L	.	8a/ 8f#/L	.	16aa\LL	.	.	.	.	.	16a/LL	16aa\LL	.
.	.	.	.	.	.	.	16gg#\	.	.	.	.	.	16g#X/	16gg#X\	.
8G\ 8GG\	.	.	8d/ 8c/	.	8a/ 8f#/	.	16aa\	.	.	.	.	.	16a/	16aa\	.
.	.	.	.	.	.	.	16gg#\JJ	.	.	.	.	.	16g#/JJ	16gg#\JJ	.
*	*	*	*	*	*	*	*Xrep	*	*	*	*	*	*Xrep	*Xrep	*
!	!	!	!	!	!	!	!LO:LB:g=original	!	!	!	!	!	!	!	!
8G\ 8GG\	.	.	8d/ 8c/	.	8a/ 8f#/	.	16aa\LL	.	.	.	.	.	16a/LL	16aa\LL	.
.	.	.	.	.	.	.	16bb\	.	.	.	.	.	16b/	16bb\	.
8G\ 8GG\J	.	.	8d/ 8c/J	.	8a/ 8f#/J	.	16ccc\	.	.	.	.	.	16cc/	16ccc\	.
.	x	.	.	.	.	.	16aa\JJ	.	.	.	.	.	16a/JJ	16aa\JJ	.
!LO:LB:g=original	!	!	!	!	!	!	!	!	!	!	!	!	!	!	!
=23	=23	=23	=23	=23	=23	=23	=23	=23	=23	=23	=23	=23	=23	=23	=23
8G\ 8GG\L	n7 5 3	.	8d/ 8BnX/L	.	8fn/ 8G/L	.	16bb\LL	.	.	.	1ryy	1ryy	16b\LL	16bb\LL	.
.	.	.	.	.	.	.	16aa#X\	.	.	.	.	.	16a#X\	16aa#X\	.
8G\ 8GG\	.	.	8d/ 8BnX/	.	8fn/ 8G/	.	16bb\	.	.	.	.	.	16b\	16bb\	.
.	.	.	.	.	.	.	16aa#\JJ	.	.	.	.	.	16a#\JJ	16aa#\JJ	.
*	*	*	*	*	*	*	*rep	*	*	*	*	*	*rep	*rep	*
8G\ 8GG\	.	.	8d/ 8BnX/	.	8fn/ 8G/	.	16bb\LL	.	.	.	.	.	16b\LL	16bb\LL	.
.	.	.	.	.	.	.	16aa#X\	.	.	.	.	.	16a#X\	16aa#X\	.
8G\ 8GG\J	.	.	8d/ 8BnX/J	.	8fn/ 8G/J	.	16bb\	.	.	.	.	.	16b\	16bb\	.
.	.	.	.	.	.	.	16aa#\JJ	.	.	.	.	.	16a#\JJ	16aa#\JJ	.
*	*	*	*	*	*	*	*Xrep	*	*	*	*	*	*Xrep	*Xrep	*
*	*	*	*	*	*	*	*rep	*	*	*	*	*	*rep	*rep	*
8G\ 8GG\L	_ _ _	.	8d/ 8B/L	.	8f/ 8G/L	.	16bb\LL	.	.	.	.	.	16b\LL	16bb\LL	.
.	.	.	.	.	.	.	16aa#X\	.	.	.	.	.	16a#X\	16aa#X\	.
8G\ 8GG\	.	.	8d/ 8B/	.	8f/ 8G/	.	16bb\	.	.	.	.	.	16b\	16bb\	.
.	.	.	.	.	.	.	16aa#\JJ	.	.	.	.	.	16a#\JJ	16aa#\JJ	.
*	*	*	*	*	*	*	*Xrep	*	*	*	*	*	*Xrep	*Xrep	*
!	!	!	!	!	!	!	!	!	!	!	!	!	!	!LO:LB:g=original	!
8G\ 8GG\	.	.	8d/ 8B/	.	8f/ 8G/	.	16bb\LL	.	.	.	.	.	16b\LL	16bb\LL	.
.	.	.	.	.	.	.	16ccc\	.	.	.	.	.	16cc\	16ccc\	.
8G\ 8GG\J	.	.	8d/ 8B/J	.	8f/ 8G/J	.	16ddd\	.	.	.	.	.	16dd\	16ddd\	.
.	x	.	.	.	.	.	16bb\JJ	.	.	.	.	.	16b\JJ	16bb\JJ	.
!	!	!	!	!	!	!	!	!	!	!	!	!	!LO:LB:g=original	!	!
=24	=24	=24	=24	=24	=24	=24	=24	=24	=24	=24	=24	=24	=24	=24	=24
8G\ 8GG\L	6 4	.	8c/L	.	8e/ 8G/L	.	16ccc\LL	.	.	.	1ryy	1ryy	16cc\LL	16ccc\LL	.
.	.	.	.	.	.	.	16bb\	.	.	.	.	.	16b\	16bb\	.
8G\ 8GG\	.	.	8c/	.	8e/ 8G/	.	16ccc\	.	.	.	.	.	16cc\	16ccc\	.
.	.	.	.	.	.	.	16bb\JJ	.	.	.	.	.	16b\JJ	16bb\JJ	.
*	*	*	*	*	*	*	*rep	*	*	*	*	*	*rep	*rep	*
8G\ 8GG\	.	.	8c/	.	8e/ 8G/	.	16ccc\LL	.	.	.	.	.	16cc\LL	16ccc\LL	.
.	.	.	.	.	.	.	16bb\	.	.	.	.	.	16b\	16bb\	.
8G\ 8GG\J	.	.	8c/J	.	8e/ 8G/J	.	16ccc\	.	.	.	.	.	16cc\	16ccc\	.
.	.	.	.	.	.	.	16bb\JJ	.	.	.	.	.	16b\JJ	16bb\JJ	.
*	*	*	*	*	*	*	*Xrep	*	*	*	*	*	*Xrep	*Xrep	*
*	*	*	*	*	*	*	*rep	*	*	*	*	*	*rep	*rep	*
8G\ 8GG\L	_ _	.	8c/L	.	8e/ 8G/L	.	16ccc\LL	.	.	.	.	.	16cc\LL	16ccc\LL	.
.	.	.	.	.	.	.	16bb\	.	.	.	.	.	16b\	16bb\	.
8G\ 8GG\	.	.	8c/	.	8e/ 8G/	.	16ccc\	.	.	.	.	.	16cc\	16ccc\	.
.	.	.	.	.	.	.	16bb\JJ	.	.	.	.	.	16b\JJ	16bb\JJ	.
*	*	*	*	*	*	*	*Xrep	*	*	*	*	*	*Xrep	*Xrep	*
8G\ 8GG\	.	.	8c/	.	8e/ 8G/	.	16ccc\LL	.	.	.	.	.	16cc\LL	16ccc\LL	.
.	.	.	.	.	.	.	16ddd\	.	.	.	.	.	16dd\	16ddd\	.
8G\ 8GG\J	.	.	8c/J	.	8e/ 8G/J	.	16eee\	.	.	.	.	.	16ee\	16eee\	.
.	x	.	.	.	.	.	16ccc\JJ	.	.	.	.	.	16cc\JJ	16ccc\JJ	.
*Xtremolo	*	*	*Xtremolo	*	*Xtremolo	*	*	*	*	*	*	*	*	*	*
=25	=25	=25	=25	=25	=25	=25	=25	=25	=25	=25	=25	=25	=25	=25	=25
8G\ 8GG\	#7 -6 4	.	8f#X/ 8A/	.	8e-X/ 8G/	.	8ff#X\	.	00r	.	1ryy	1ryy	8cc\	8fff#X\	.
4G\ 4GG\	_ _ _	.	4f#/ 4A/	.	4e-/ 4G/	.	4ff#\	.	.	.	.	.	4cc\	4fff#\	.
8G\ 8GG\	x -6 4	.	8f#/ 8A/	.	8e-/ 8G/	.	8gg\	.	.	.	.	.	8cc\	8ggg\	.
8G\ 8GG\	#7 -6 4	.	8f#/ 8A/	.	8e-/ 8G/	.	8aa\	.	.	.	.	.	8cc\	8aaa\	.
4G\ 4GG\	_ _ _	.	4f#/ 4A/	.	4e-/ 4G/	.	4ff#\	.	.	.	.	.	4cc\	4aaa\	.
8G\ 8GG\	x #6 4	.	8f#/ 8A/	.	8e-/ 8G/	.	8gg\	.	.	.	.	.	8cc\	8ggg\	.
=26	=26	=26	=26	=26	=26	=26	=26	=26	=26	=26	=26	=26	=26	=26	=26
8G\ 8GG\	#7 -6 4	.	8f#X/ 8A/	.	8e-X/ 8G/	.	8aa\	.	.	.	1ryy	1ryy	8cc\	8aaa\	.
4G\ 4GG\	_ _ _	.	4f#/ 4A/	.	4e-/ 4G/	.	4ff#X\	.	.	.	.	.	4cc\	4fff#X\	.
8G\ 8GG\	x 6 4	.	8f#/ 8A/	.	8e-/ 8G/	.	8gg\	.	.	.	.	.	8cc\	8ggg\	.
*	*	*	*tremolo	*	*tremolo	*	*	*	*	*	*	*	*	*	*
2G\ 2GG\	#7 -6 4	.	8f#/ 8A/L	.	8e-/ 8G/L	.	8aa\L	.	.	.	.	.	8cc\L	8aaa\L	.
.	.	.	8f#/ 8A/	.	8e-/ 8G/	.	8gg\	.	.	.	.	.	8cc\	8bbb\	.
.	.	.	8f#/ 8A/	.	8e-/ 8G/	.	8ff#\	.	.	.	.	.	8cc\	8fff#\	.
.	.	.	8f#/ 8A/J	.	8e-/ 8G/J	.	8aa\J	.	.	.	.	.	8cc\J	8aaa\J	.
*	*	*	*Xtremolo	*	*Xtremolo	*	*	*	*	*	*	*	*	*	*
=27	=27	=27	=27	=27	=27	=27	=27	=27	=27	=27	=27	=27	=27	=27	=27
4G/ 4GG/	5 3	.	4d/ 4BnX/	.	4g/ 4G/	.	4gg\ 4b\	.	.	.	1ryy	1ryy	4dd\	4ggg\	.
8.r	.	.	8.r	.	8.r	.	8.r	.	.	.	.	.	8.r	8.r	.
16G/ 16GG/	_ _	.	16d/ 16B/	.	16g/ 16G/	.	16gg\ 16b\	.	.	.	.	.	16dd\	16ggg\	.
!	!	!	!	!	!	!	!LO:N:vis=4.	!	!	!	!	!	!	!	!
4G/ 4GG/	_ _	.	4d/ 4B/	.	4g/ 4G/	.	4..gg\ 4..b\	.	.	.	.	.	4dd\	4ggg\	.
8.r	x	.	8.r	.	8.r	.	.	.	.	.	.	.	8.r	8.r	.
16G/ 16GG/	7	.	16d/ 16B/	.	16g/ 16G/	.	16gg\ 16b\	.	.	.	.	.	16dd\	16ggg\	.
=28	=28	=28	=28	=28	=28	=28	=28	=28	=28	=28	=28	=28	=28	=28	=28
*	*	*	*	*	*	*	*	*	*	*	*	*	*2\right	*2\right	*
2G/ 2GG/	7	.	2d/ 2BnX/	.	2g/ 2G/	.	2gg\ 2b\	.	.	.	1ryy	1ryy	2dd\	2ggg\	.
2r	.	.	2r	.	2r	.	2r	.	.	.	.	.	2r	2r	.
!	!	!	!	!	!	!	!	!	!LO:LB:g=original	!	!	!	!	!LO:LB:g=original	!
=29||	=29||	=29||	=29||	=29||	=29||	=29||	=29||	=29||	=29||	=29||	=29||	=29||	=29||	=29||	=29||
*k[]	*	*	*k[]	*	*k[bnenan]	*	*k[bnenan]	*	*k[bnenan]	*	*	*	*k[bnenan]	*k[bnenan]	*
*M4/4	*	*	*M4/4	*	*M4/4	*	*M4/4	*	*M4/4	*	*	*	*M4/4	*M4/4	*
*met(c)	*	*	*met(c)	*	*met(c)	*	*met(c)	*	*met(c)	*	*	*	*met(c)	*met(c)	*
*	*	*	*tremolo	*	*tremolo	*	*	*	*	*	*	*	*	*	*
!LO:SIC:o:s:v:t=brak znaków 	!	!	!LO:TX:a:rj:t=Allegro	!LO:DY:rj	!	!	!LO:TX:a:rj:t=Allego Dona	!	!	!	!	!	!	!LO:TX:a:t=2	!
!LO:TX:a:rj:t=Allegro	!	!LO:DY:rj	!	!	!LO:TX:a:rj:t=Allegro	!LO:DY:rj	!	!	!	!	!	!	!LO:TX:a:rj:t=allegro	!LO:TX:a:rj:t=Allegro	!
4C/	5 3	f	8c/L	ff	8e/ 8G/L	ff	2ee\	.	2e/	Do-	1ryy	1ryy	2e/	0r	.
.	.	.	8c/	.	8e/ 8G/	.	.	.	.	.	.	.	.	.	.
4GG/	_ _	.	8c/	.	8e/ 8G/	.	.	.	.	.	.	.	.	.	.
.	.	.	8c/J	.	8e/ 8G/J	.	.	.	.	.	.	.	.	.	.
4C/	.	.	8c/L	.	8e/ 8G/L	.	4.ee\	.	(4.e/	-na	.	.	4.e/	.	.
.	.	.	8c/	.	8e/ 8G/	.	.	.	.	.	.	.	.	.	.
4GG/	.	.	8c/	.	8e/ 8G/	.	.	.	.	.	.	.	.	.	.
.	x	.	8c/J	.	8e/ 8G/J	.	8ff\	.	8f/)	.	.	.	8f/	.	.
!	!	!	!	!	!	!	!LO:LB:g=original	!	!	!	!	!	!	!	!
=30	=30	=30	=30	=30	=30	=30	=30	=30	=30	=30	=30	=30	=30	=30	=30
*rep	*	*	*rep	*	*rep	*	*	*	*	*	*	*	*	*	*
4C/	.	.	8c/L	.	8e/ 8G/L	.	2ff#X\	.	2f#X/	no-	1ryy	1ryy	2f#X/	.	.
.	.	.	8c/	.	8e/ 8G/	.	.	.	.	.	.	.	.	.	.
4GG/	.	.	8c/	.	8e/ 8G/	.	.	.	.	.	.	.	.	.	.
.	.	.	8c/J	.	8e/ 8G/J	.	.	.	.	.	.	.	.	.	.
4C/	.	.	8c/L	.	8e/ 8G/L	.	4gg\	.	4g\	-bis	.	.	4g/	.	.
.	.	.	8c/	.	8e/ 8G/	.	.	.	.	.	.	.	.	.	.
4GG/	.	.	8c/	.	8e/ 8G/	.	4r	.	4r	.	.	.	4r	.	.
.	.	.	8c/J	.	8e/ 8G/J	.	.	.	.	.	.	.	.	.	.
*Xrep	*	*	*Xrep	*	*Xrep	*	*	*	*	*	*	*	*	*	*
=31	=31	=31	=31	=31	=31	=31	=31	=31	=31	=31	=31	=31	=31	=31	=31
*rep	*	*	*rep	*	*rep	*	*	*	*	*	*	*	*	*	*
!	!	!	!	!	!	!	!	!	!	!	!	!	!	!LO:TX:b:i:t=semper	!
4C/	.	.	8c/L	.	8e/ 8G/L	.	2eee\	.	2ee\	pa-	1ryy	1ryy	2ee\	2eee\	f
.	.	.	8c/	.	8e/ 8G/	.	.	.	.	.	.	.	.	.	.
4GG/	.	.	8c/	.	8e/ 8G/	.	.	.	.	.	.	.	.	.	.
.	.	.	8c/J	.	8e/ 8G/J	.	.	.	.	.	.	.	.	.	.
4C/	.	.	8c/L	.	8e/ 8G/L	.	4.ddd\	.	4.dd\	-cem	.	.	4.dd\	4.ddd\	.
.	.	.	8c/	.	8e/ 8G/	.	.	.	.	.	.	.	.	.	.
4GG/	.	.	8c/	.	8e/ 8G/	.	.	.	.	.	.	.	.	.	.
.	.	.	8c/J	.	8e/ 8G/J	.	8ccc\	.	8cc\	da	.	.	8cc\	8ccc\	.
*Xrep	*	*	*Xrep	*	*Xrep	*	*	*	*	*	*	*	*	*	*
!	!	!	!	!	!	!	!	!	!	!	!	!	!LO:LB:g=original	!	!
=32	=32	=32	=32	=32	=32	=32	=32	=32	=32	=32	=32	=32	=32	=32	=32
4D/	6 4 3	.	8d/ 8B/L	.	8f/ 8G/L	.	2ccc\	.	2cc\	pa-	1ryy	1ryy	2cc\	2ccc\	.
.	.	.	8d/ 8B/	.	8f/ 8G/	.	.	.	.	.	.	.	.	.	.
4GG/	_ _ _	.	8d/ 8B/	.	8f/ 8G/	.	.	.	.	.	.	.	.	.	.
.	.	.	8d/ 8B/J	.	8f/ 8G/J	.	.	.	.	.	.	.	.	.	.
4D/	.	.	8d/ 8B/L	.	8f/ 8G/L	.	4bb\	.	4b\	-cem	.	.	4b\	4bb\	.
.	.	.	8d/ 8B/	.	8f/ 8G/	.	.	.	.	.	.	.	.	.	.
4GG/	.	.	8d/ 8B/	.	8f/ 8G/	.	4r	.	4r	.	.	.	4r	4r	.
.	.	.	8d/ 8B/J	.	8f/ 8G/J	.	.	.	.	.	.	.	.	.	.
!	!	!	!	!	!LO:LB:g=original	!	!	!	!	!	!	!	!	!	!
=33	=33	=33	=33	=33	=33	=33	=33	=33	=33	=33	=33	=33	=33	=33	=33
*rep	*	*	*rep	*	*rep	*	*	*	*	*	*	*	*	*	*
4D/	.	.	8d/ 8B/L	.	8f/ 8G/L	.	2bb\	.	2b\	Do-	1ryy	1ryy	2b\	2bb\	.
.	x	.	8d/ 8B/	.	8f/ 8G/	.	.	.	.	.	.	.	.	.	.
4GG/	.	.	8d/ 8B/	.	8f/ 8G/	.	.	.	.	.	.	.	.	.	.
.	.	.	8d/ 8B/J	.	8f/ 8G/J	.	.	.	.	.	.	.	.	.	.
4D/	.	.	8d/ 8B/L	.	8f/ 8G/L	.	4.ccc\	.	(4.cc\	-na	.	.	4.cc\	4.ccc\	.
.	.	.	8d/ 8B/	.	8f/ 8G/	.	.	.	.	.	.	.	.	.	.
4GG/	.	.	8d/ 8B/	.	8f/ 8G/	.	.	.	.	.	.	.	.	.	.
.	.	.	8d/ 8B/J	.	8f/ 8G/J	.	8ccc#X\	.	8cc#X\)	.	.	.	8cc#X\	8ccc#X\	.
*Xrep	*	*	*Xrep	*	*Xrep	*	*	*	*	*	*	*	*	*	*
=34	=34	=34	=34	=34	=34	=34	=34	=34	=34	=34	=34	=34	=34	=34	=34
*rep	*	*	*rep	*	*rep	*	*	*	*	*	*	*	*	*	*
4D/	.	.	8d/ 8B/L	.	8f/ 8G/L	.	2eee\	.	2ee\	no-	1ryy	1ryy	2ee\	2eee\	.
.	.	.	8d/ 8B/	.	8f/ 8G/	.	.	.	.	.	.	.	.	.	.
4GG/	.	.	8d/ 8B/	.	8f/ 8G/	.	.	.	.	.	.	.	.	.	.
.	.	.	8d/ 8B/J	.	8f/ 8G/J	.	.	.	.	.	.	.	.	.	.
4D/	.	.	8d/ 8B/L	.	8f/ 8G/L	.	4ddd\	.	4dd\	-bis	.	.	4dd\	4ddd\	.
.	.	.	8d/ 8B/	.	8f/ 8G/	.	.	.	.	.	.	.	.	.	.
4GG/	.	.	8d/ 8B/	.	8f/ 8G/	.	4r	.	4r	.	.	.	4r	4r	.
.	.	.	8d/ 8B/J	.	8f/ 8G/J	.	.	.	.	.	.	.	.	.	.
*Xrep	*	*	*Xrep	*	*Xrep	*	*	*	*	*	*	*	*	*	*
=35	=35	=35	=35	=35	=35	=35	=35	=35	=35	=35	=35	=35	=35	=35	=35
*	*	*	*rep	*	*rep	*	*	*	*	*	*	*	*	*	*
!	!	!	!	!	!	!	!	!	!	!	!	!	!	!LO:TX:a:t=4	!
4BB/	6 3 5	.	8d/ 8B/L	.	8f/ 8G/L	.	4ff\	.	(4dd\	pa-	1ryy	1ryy	4dd\	00r	.
.	.	.	8d/ 8B/	.	8f/ 8G/	.	.	.	.	.	.	.	.	.	.
4GG/	_ _ _	.	8d/ 8B/	.	8f/ 8G/	.	4ff#X\	.	4cc\)	.	.	.	4cc\	.	.
.	.	.	8d/ 8B/J	.	8f/ 8G/J	.	.	.	.	.	.	.	.	.	.
4BB/	.	.	8d/ 8B/L	.	8f/ 8G/L	.	4gg\	.	4b\	-cem	.	.	4b\	.	.
.	.	.	8d/ 8B/	.	8f/ 8G/	.	.	.	.	.	.	.	.	.	.
4GG/	.	.	8d/ 8B/	.	8f/ 8G/	.	4ffn\	.	4dd\	da	.	.	4dd\	.	.
.	.	.	8d/ 8B/J	.	8f/ 8G/J	.	.	.	.	.	.	.	.	.	.
*	*	*	*Xrep	*	*Xrep	*	*	*	*	*	*	*	*	*	*
!LO:LB:g=original	!	!	!LO:LB:g=original	!	!	!	!	!	!	!	!	!	!	!	!
=36	=36	=36	=36	=36	=36	=36	=36	=36	=36	=36	=36	=36	=36	=36	=36
4C/	5 3	.	8c/L	.	8e/ 8G/L	.	2dd#X\	.	2b\	pa-	1ryy	1ryy	2b\	.	.
.	.	.	8c/	.	8e/ 8G/	.	.	.	.	.	.	.	.	.	.
4GG/	_ _	.	8c/	.	8e/ 8G/	.	.	.	.	.	.	.	.	.	.
.	.	.	8c/J	.	8e/ 8G/J	.	.	.	.	.	.	.	.	.	.
4C/	.	.	8c/L	.	8e/ 8G/L	.	4ee\	.	4cc\	-cem	.	.	4cc\	.	.
.	.	.	8c/	.	8e/ 8G/	.	.	.	.	.	.	.	.	.	.
4GG/	.	.	8c/	.	8e/ 8G/	.	4r	.	4r	.	.	.	4r	.	.
.	x	.	8c/J	.	8e/ 8G/J	.	.	.	.	.	.	.	.	.	.
=37	=37	=37	=37	=37	=37	=37	=37	=37	=37	=37	=37	=37	=37	=37	=37
*rep	*	*	*rep	*	*rep	*	*	*	*	*	*	*	*	*	*
!	!	!	!	!	!	!	!	!	!LO:TX:a:t=2	!	!	!	!	!	!
4C/	.	.	8c/L	.	8e/ 8G/L	.	2ee\	.	0r	.	1ryy	1ryy	2e/	.	.
.	.	.	8c/	.	8e/ 8G/	.	.	.	.	.	.	.	.	.	.
4GG/	.	.	8c/	.	8e/ 8G/	.	.	.	.	.	.	.	.	.	.
.	.	.	8c/J	.	8e/ 8G/J	.	.	.	.	.	.	.	.	.	.
4C/	.	.	8c/L	.	8e/ 8G/L	.	4.ee\	.	.	.	.	.	4.e/	.	.
.	.	.	8c/	.	8e/ 8G/	.	.	.	.	.	.	.	.	.	.
4GG/	.	.	8c/	.	8e/ 8G/	.	.	.	.	.	.	.	.	.	.
.	.	.	8c/J	.	8e/ 8G/J	.	8ff\	.	.	.	.	.	8f/	.	.
*Xrep	*	*	*Xrep	*	*Xrep	*	*	*	*	*	*	*	*	*	*
=38	=38	=38	=38	=38	=38	=38	=38	=38	=38	=38	=38	=38	=38	=38	=38
*rep	*	*	*rep	*	*rep	*	*	*	*	*	*	*	*	*	*
4C/	.	.	8c/L	.	8e/ 8G/L	.	2aa\	.	.	.	1ryy	1ryy	2a/	.	.
.	.	.	8c/	.	8e/ 8G/	.	.	.	.	.	.	.	.	.	.
4GG/	.	.	8c/	.	8e/ 8G/	.	.	.	.	.	.	.	.	.	.
.	.	.	8c/J	.	8e/ 8G/J	.	.	.	.	.	.	.	.	.	.
4C/	.	.	8c/L	.	8e/ 8G/L	.	4gg\	.	.	.	.	.	4g/	.	.
.	.	.	8c/	.	8e/ 8G/	.	.	.	.	.	.	.	.	.	.
4GG/	.	.	8c/	.	8e/ 8G/	.	4r	.	.	.	.	.	4r	.	.
.	.	.	8c/J	.	8e/ 8G/J	.	.	.	.	.	.	.	.	.	.
*Xrep	*	*	*Xrep	*	*Xrep	*	*	*	*	*	*	*	*	*	*
=39	=39	=39	=39	=39	=39	=39	=39	=39	=39	=39	=39	=39	=39	=39	=39
*	*	*	*2\right	*	*	*	*	*	*	*	*	*	*	*	*
4C#X/	6 5 3	.	8e\L	.	8g/ 8A/L	.	2bb-X\	.	2b-X\	pa-	1ryy	1ryy	2b-X\	[4bb-X\	.
.	.	.	8e\	.	8g/ 8A/	.	.	.	.	.	.	.	.	.	.
4AA/	_ _ _	.	8e\	.	8g/ 8A/	.	.	.	.	.	.	.	.	4bb-\]	.
.	.	.	8e\J	.	8g/ 8A/J	.	.	.	.	.	.	.	.	.	.
4C#/	.	.	8e\L	.	8g/ 8A/L	.	4aa\	.	4a\	-cem	.	.	4a\	4aa\	.
.	.	.	8e\	.	8g/ 8A/	.	.	.	.	.	.	.	.	.	.
4AA/	.	.	8e\	.	8g/ 8A/	.	(8eee\L	.	(8ee\L	da	.	.	8ee\L	8eee\L	.
.	.	.	8e\J	.	8g/ 8A/J	.	8fff\J)	.	8ff\J)	.	.	.	8ff\J	8eee\J	.
=40	=40	=40	=40	=40	=40	=40	=40	=40	=40	=40	=40	=40	=40	=40	=40
4D/	x 5 3	.	8d/ 8A/L	.	8f/ 8A/L	.	2eee\	.	2ee\	pa-	1ryy	1ryy	2ee\	2eee\	.
.	.	.	8d/ 8A/	.	8f/ 8A/	.	.	.	.	.	.	.	.	.	.
4AA/	_ _	.	8d/ 8A/	.	8f/ 8A/	.	.	.	.	.	.	.	.	.	.
.	.	.	8d/ 8A/J	.	8f/ 8A/J	.	.	.	.	.	.	.	.	.	.
4D/	.	.	8d/ 8A/L	.	8f/ 8A/L	.	4ddd\	.	4dd\	-cem	.	.	4dd\	4ddd\	.
.	.	.	8d/ 8A/	.	8f/ 8A/	.	.	.	.	.	.	.	.	.	.
4AA/	.	.	8d/ 8A/	.	8f/ 8A/	.	4r	.	4r	.	.	.	4r	4r	.
.	.	.	8d/ 8A/J	.	8f/ 8A/J	.	.	.	.	.	.	.	.	.	.
!	!	!	!	!	!	!	!	!	!LO:LB:g=original	!	!	!	!	!	!
=41	=41	=41	=41	=41	=41	=41	=41	=41	=41	=41	=41	=41	=41	=41	=41
*	*	*	*rep	*	*rep	*	*	*	*	*	*	*	*	*	*
!	!	!	!	!	!	!	!	!	!LO:TX:a:t=2	!	!	!	!	!	!
4F/ 4FF/	6 3	.	8d/ 8A/L	.	8f/ 8A/L	.	2ddd\	.	0r	.	1ryy	1ryy	2dd\	2ddd\	.
.	.	.	8d/ 8A/	.	8f/ 8A/	.	.	.	.	.	.	.	.	.	.
4F/ 4FF/	_ _ _	.	8d/ 8A/	.	8f/ 8A/	.	.	.	.	.	.	.	.	.	.
.	.	.	8d/ 8A/J	.	8f/ 8A/J	.	.	.	.	.	.	.	.	.	.
4F/ 4FF/	.	.	8d/ 8A/L	.	8f/ 8A/L	.	4.ccc\	.	.	.	.	.	4.cc\	4.ccc\	.
.	.	.	8d/ 8A/	.	8f/ 8A/	.	.	.	.	.	.	.	.	.	.
4F/ 4FF/	.	.	8d/ 8A/	.	8f/ 8A/	.	.	.	.	.	.	.	.	.	.
.	.	.	8d/ 8A/J	.	8f/ 8A/J	.	8aa\	.	.	.	.	.	8a\	8aa\	.
*	*	*	*Xrep	*	*Xrep	*	*	*	*	*	*	*	*	*	*
=42	=42	=42	=42	=42	=42	=42	=42	=42	=42	=42	=42	=42	=42	=42	=42
4G\ 4GG\	6 4	.	8c/L	.	8e/ 8G/L	.	2gg\	.	.	.	1ryy	1ryy	2g/	2gg\	.
.	_ _	.	8c/	.	8e/ 8G/	.	.	.	.	.	.	.	.	.	.
*rep	*	*	*	*	*	*	*	*	*	*	*	*	*	*	*
4G\ 4GG\	.	.	8c/	.	8e/ 8G/	.	.	.	.	.	.	.	.	.	.
.	.	.	8c/J	.	8e/ 8G/J	.	.	.	.	.	.	.	.	.	.
*Xrep	*	*	*	*	*	*	*	*	*	*	*	*	*	*	*
*rep	*	*	*	*	*	*	*	*	*	*	*	*	*	*	*
4G\ 4GG\	.	.	8c/L	.	8e/ 8G/L	.	4ccc\	.	.	.	.	.	4cc\	4ccc\	.
.	.	.	8c/	.	8e/ 8G/	.	.	.	.	.	.	.	.	.	.
*Xrep	*	*	*	*	*	*	*	*	*	*	*	*	*	*	*
*rep	*	*	*	*	*	*	*	*	*	*	*	*	*	*	*
4G\ 4GG\	.	.	8c/	.	8e/ 8G/	.	4r	.	.	.	.	.	4r	4r	.
.	.	.	8c/J	.	8e/ 8G/J	.	.	.	.	.	.	.	.	.	.
*Xrep	*	*	*	*	*	*	*	*	*	*	*	*	*	*	*
=43	=43	=43	=43	=43	=43	=43	=43	=43	=43	=43	=43	=43	=43	=43	=43
4G\ 4GG\	x 7	.	8d/ 8B/L	.	8f/ 8G/L	.	4ccc\	.	(4cc\	pa-	1ryy	1ryy	4cc\	4ccc\	.
.	.	.	8d/ 8B/	.	8f/ 8G/	.	.	.	.	.	.	.	.	.	.
*rep	*	*	*	*	*	*	*	*	*	*	*	*	*	*	*
4G\ 4GG\	x _	.	8d/ 8B/	.	8f/ 8G/	.	4bb\	.	4b\	.	.	.	4b\	4bb\	.
.	.	.	8d/ 8B/J	.	8f/ 8G/J	.	.	.	.	.	.	.	.	.	.
*Xrep	*	*	*	*	*	*	*	*	*	*	*	*	*	*	*
*rep	*	*	*	*	*	*	*	*	*	*	*	*	*	*	*
4G\ 4GG\	.	.	8d/ 8B/L	.	8f/ 8G/L	.	4ccc\	.	4cc\	.	.	.	4cc\	4ccc\	.
.	.	.	8d/ 8B/	.	8f/ 8G/	.	.	.	.	.	.	.	.	.	.
*Xrep	*	*	*	*	*	*	*	*	*	*	*	*	*	*	*
*rep	*	*	*	*	*	*	*	*	*	*	*	*	*	*	*
4G\ 4GG\	.	.	8d/ 8B/	.	8f/ 8G/	.	4ddd\	.	4dd\)	.	.	.	4dd\	4ddd\	.
.	.	.	8d/ 8B/J	.	8f/ 8G/J	.	.	.	.	.	.	.	.	.	.
*Xrep	*	*	*	*	*	*	*	*	*	*	*	*	*	*	*
!	!	!	!	!	!	!	!LO:LB:g=original	!	!	!	!	!	!	!	!
=44	=44	=44	=44	=44	=44	=44	=44	=44	=44	=44	=44	=44	=44	=44	=44
4E/ 4EE/	5 #3	.	8B/L	.	8e/ 8G#X/L	.	1eee\	.	2ee\	-cem	1ryy	1ryy	1ee\	1eee\	.
.	.	.	8B/	.	8e/ 8G#X/	.	.	.	.	.	.	.	.	.	.
*rep	*	*	*	*	*	*	*	*	*	*	*	*	*	*	*
4E/ 4EE/	.	.	8B/	.	8e/ 8G#X/	.	.	.	.	.	.	.	.	.	.
.	.	.	8B/J	.	8e/ 8G#X/J	.	.	.	.	.	.	.	.	.	.
*Xrep	*	*	*	*	*	*	*	*	*	*	*	*	*	*	*
*rep	*	*	*	*	*	*	*	*	*	*	*	*	*	*	*
4E/ 4EE/	.	.	8B/L	.	8e/ 8G#/L	.	.	.	2r	.	.	.	.	.	.
.	.	.	8B/	.	8e/ 8G#/	.	.	.	.	.	.	.	.	.	.
*Xrep	*	*	*	*	*	*	*	*	*	*	*	*	*	*	*
*rep	*	*	*	*	*	*	*	*	*	*	*	*	*	*	*
4E/ 4EE/	.	.	8B/	.	8e/ 8G#/	.	.	.	.	.	.	.	.	.	.
.	.	.	8B/J	.	8e/ 8G#/J	.	.	.	.	.	.	.	.	.	.
*Xrep	*	*	*	*	*	*	*	*	*	*	*	*	*	*	*
!	!	!	!	!	!	!	!	!	!	!	!	!	!LO:LB:g=original	!	!
=45	=45	=45	=45	=45	=45	=45	=45	=45	=45	=45	=45	=45	=45	=45	=45
!	!	!	!	!	!	!	!	!	!	!	!	!	!	!LO:N:vis=2.	!
4D/ 4DD/	5 3	.	8d/ 8A/L	.	8f/ 8A/L	.	2fff\	.	2ff\	do-	1ryy	1ryy	2ff\	2fff\	.
.	_ _	.	8d/ 8A/	.	8f/ 8A/	.	.	.	.	.	.	.	.	.	.
4D/ 4DD/	.	.	8d/ 8A/	.	8f/ 8A/	.	.	.	.	.	.	.	.	.	.
.	.	.	8d/ 8A/J	.	8f/ 8A/J	.	.	.	.	.	.	.	.	.	.
4F/ 4FF/	6 3	.	8d/ 8A/L	.	8f/ 8A/L	.	4.eee\	.	(4.ee\	-na	.	.	4.ee\	4.eee\	.
.	_ _	.	8d/ 8A/	.	8f/ 8A/	.	.	.	.	.	.	.	.	.	.
4F/ 4FF/	.	.	8d/ 8A/	.	8f/ 8A/	.	.	.	.	.	.	.	.	.	.
.	.	.	8d/ 8A/J	.	8f/ 8A/J	.	8ddd\	.	8dd\)	.	.	.	8dd\	8ddd\	.
!	!	!	!	!	!	!	!	!	!	!	!	!	!	!LO:LB:g=original	!
=46	=46	=46	=46	=46	=46	=46	=46	=46	=46	=46	=46	=46	=46	=46	=46
4G\ 4GG\	6 4	.	8c/L	.	8e/ 8G/L	.	2ggg\	.	2gg\	no-	1ryy	1ryy	2gg\	2ggg\	.
.	.	.	8c/	.	8e/ 8G/	.	.	.	.	.	.	.	.	.	.
*rep	*	*	*	*	*	*	*	*	*	*	*	*	*	*	*
4G\ 4GG\	.	.	8c/	.	8e/ 8G/	.	.	.	.	.	.	.	.	.	.
.	.	.	8c/J	.	8e/ 8G/J	.	.	.	.	.	.	.	.	.	.
*Xrep	*	*	*	*	*	*	*	*	*	*	*	*	*	*	*
*rep	*	*	*	*	*	*	*	*	*	*	*	*	*	*	*
4G\ 4GG\	.	.	8c/L	.	8e/ 8G/L	.	4.eee\	.	(4.ee\	-bis	.	.	4.ee\	4.eee\	.
.	.	.	8c/	.	8e/ 8G/	.	.	.	.	.	.	.	.	.	.
*Xrep	*	*	*	*	*	*	*	*	*	*	*	*	*	*	*
*rep	*	*	*	*	*	*	*	*	*	*	*	*	*	*	*
4G\ 4GG\	.	.	8c/	.	8e/ 8G/	.	.	.	.	.	.	.	.	.	.
.	.	.	8c/J	.	8e/ 8G/J	.	8ccc\	.	8cc\)	.	.	.	8cc\	8ccc\	.
*Xrep	*	*	*	*	*	*	*	*	*	*	*	*	*	*	*
=47	=47	=47	=47	=47	=47	=47	=47	=47	=47	=47	=47	=47	=47	=47	=47
4G\ 4GG\	7	.	8d/ 8B/L	.	8f/ 8G/L	.	2gg\	.	2g\	pa-	1ryy	1ryy	2g/	2gg\	.
.	.	.	8d/ 8B/	.	8f/ 8G/	.	.	.	.	.	.	.	.	.	.
*rep	*	*	*	*	*	*	*	*	*	*	*	*	*	*	*
4G\ 4GG\	.	.	8d/ 8B/	.	8f/ 8G/	.	.	.	.	.	.	.	.	.	.
.	.	.	8d/ 8B/J	.	8f/ 8G/J	.	.	.	.	.	.	.	.	.	.
*Xrep	*	*	*	*	*	*	*	*	*	*	*	*	*	*	*
*rep	*	*	*	*	*	*	*	*	*	*	*	*	*	*	*
4G\ 4GG\	.	.	8d/ 8B/L	.	8f/ 8G/L	.	4.aa\	.	(4.a\	.	.	.	4.a/	4.aa\	.
.	.	.	8d/ 8B/	.	8f/ 8G/	.	.	.	.	.	.	.	.	.	.
*Xrep	*	*	*	*	*	*	*	*	*	*	*	*	*	*	*
*rep	*	*	*	*	*	*	*	*	*	*	*	*	*	*	*
4G\ 4GG\	.	.	8d/ 8B/	.	8f/ 8G/	.	.	.	.	.	.	.	.	.	.
.	.	.	8d/ 8B/J	.	8f/ 8G/J	.	8bb\	.	8b\)	.	.	.	8b/	8bb\	.
*Xrep	*	*	*	*	*	*	*	*	*	*	*	*	*	*	*
=48!|:	=48	=48	=48!|:	=48	=48	=48	=48!|:	=48	=48	=48	=48	=48	=48!|:	=48!|:	=48
*	*	*	*	*	*2\right	*	*tremolo	*	*	*	*	*	*	*	*
2C/	5 3	f	16c/ 16C/LL	.	16cc\ 16e\LL	.	16ccc\LL	.	2cc\	-cem	1ryy	1ryy	1cc\	1ccc\	.
.	.	.	16c/ 16C/	.	16cc\ 16e\	.	16ccc\	.	.	.	.	.	.	.	.
.	.	.	16c/ 16C/	.	16cc\ 16e\	.	16ccc\	.	.	.	.	.	.	.	.
.	.	.	16c/ 16C/	.	16cc\ 16e\	.	16ccc\	.	.	.	.	.	.	.	.
.	.	.	16c/ 16C/	.	16cc\ 16e\	.	16ccc\	.	.	.	.	.	.	.	.
.	.	.	16c/ 16C/	.	16cc\ 16e\	.	16ccc\	.	.	.	.	.	.	.	.
.	.	.	16c/ 16C/	.	16cc\ 16e\	.	16ccc\	.	.	.	.	.	.	.	.
.	.	.	16c/ 16C/	.	16cc\ 16e\JJ	.	16ccc\	.	.	.	.	.	.	.	.
4.C/	_ _	.	16c/ 16C/	.	16cc\ 16e\LL	.	16ccc\	.	2cc\	pa-	.	.	.	.	.
.	.	.	16c/ 16C/	.	16cc\ 16e\	.	16ccc\	.	.	.	.	.	.	.	.
.	.	.	16c/ 16C/	.	16cc\ 16e\	.	16ccc\	.	.	.	.	.	.	.	.
.	.	.	16c/ 16C/	.	16cc\ 16e\	.	16ccc\	.	.	.	.	.	.	.	.
.	.	.	16c/ 16C/	.	16cc\ 16e\	.	16ccc\	.	.	.	.	.	.	.	.
.	.	.	16c/ 16C/	.	16cc\ 16e\	.	16ccc\	.	.	.	.	.	.	.	.
8C/	.	.	16c/ 16C/	.	16cc\ 16e\	.	16ccc\	.	.	.	.	.	.	.	.
.	.	.	16c/ 16C/JJ	.	16cc\ 16e\JJ	.	16ccc\JJ	.	.	.	.	.	.	.	.
*	*	*	*Xtremolo	*	*Xtremolo	*	*Xtremolo	*	*	*	*	*	*	*	*
!	!	!	!	!	!LO:LB:g=original	!	!	!	!	!	!	!	!	!	!
=49	=49	=49	=49	=49	=49	=49	=49	=49	=49	=49	=49	=49	=49	=49	=49
4C/	.	.	4c/ 4C/	.	4cc/ 4e/	.	4ccc\ 4ee\	.	4cc\	-cem	1ryy	1ryy	4cc\	4ccc\	.
!LO:TX:a:t=unisono	!	!	!	!	!	!	!	!	!	!	!	!	!	!	!
8C/L	x	.	8c/L	.	8c/L	.	8cc\L	.	4r	.	.	.	8cc\L	4r	.
8D/J	.	.	8d/J	.	8d/J	.	8dd\J	.	.	.	.	.	8dd\J	.	.
8E/L	.	.	8e/L	.	8e/L	.	8ee\L	.	2r	.	.	.	8ee\L	2r	.
8D/	.	.	8d/	.	8d/	.	8dd\	.	.	.	.	.	8dd\	.	.
8C/	.	.	8c/	.	8c/	.	8cc\	.	.	.	.	.	8cc\	.	.
8BB/J	.	.	8B/J	.	8B/J	.	8b\J	.	.	.	.	.	8b\J	.	.
!LO:LB:g=original	!	!	!	!	!	!	!	!	!	!	!	!	!	!	!
=50	=50	=50	=50	=50	=50	=50	=50	=50	=50	=50	=50	=50	=50	=50	=50
*	*	*	*tremolo	*	*tremolo	*	*tremolo	*	*	*	*	*	*	*	*
2A\ 2AA\	5 3	.	16c/ 16C/LL	.	16cc\ 16e\LL	.	16ccc\ 16ee\LL	.	1cc\	pa-	1ryy	1ryy	1a/	1ccc\	.
.	.	.	16c/ 16C/	.	16cc\ 16e\	.	16ccc\ 16ee\	.	.	.	.	.	.	.	.
.	.	.	16c/ 16C/	.	16cc\ 16e\	.	16ccc\ 16ee\	.	.	.	.	.	.	.	.
.	.	.	16c/ 16C/	.	16cc\ 16e\	.	16ccc\ 16ee\	.	.	.	.	.	.	.	.
.	.	.	16c/ 16C/	.	16cc\ 16e\	.	16ccc\ 16ee\	.	.	.	.	.	.	.	.
.	.	.	16c/ 16C/	.	16cc\ 16e\	.	16ccc\ 16ee\	.	.	.	.	.	.	.	.
.	.	.	16c/ 16C/	.	16cc\ 16e\	.	16ccc\ 16ee\	.	.	.	.	.	.	.	.
.	.	.	16c/ 16C/	.	16cc\ 16e\JJ	.	16ccc\ 16ee\	.	.	.	.	.	.	.	.
4.A\ 4.AA\	_ _	.	16c/ 16C/	.	16cc\ 16e\LL	.	16ccc\ 16ee\	.	.	.	.	.	.	.	.
.	.	.	16c/ 16C/	.	16cc\ 16e\	.	16ccc\ 16ee\	.	.	.	.	.	.	.	.
.	.	.	16c/ 16C/	.	16cc\ 16e\	.	16ccc\ 16ee\	.	.	.	.	.	.	.	.
.	.	.	16c/ 16C/	.	16cc\ 16e\	.	16ccc\ 16ee\	.	.	.	.	.	.	.	.
.	.	.	16c/ 16C/	.	16cc\ 16e\	.	16ccc\ 16ee\	.	.	.	.	.	.	.	.
.	.	.	16c/ 16C/	.	16cc\ 16e\	.	16ccc\ 16ee\	.	.	.	.	.	.	.	.
8A\ 8AA\	.	.	16c/ 16C/	.	16cc\ 16e\	.	16ccc\ 16ee\	.	.	.	.	.	.	.	.
.	.	.	16c/ 16C/JJ	.	16cc\ 16e\JJ	.	16ccc\ 16ee\JJ	.	.	.	.	.	.	.	.
*	*	*	*Xtremolo	*	*Xtremolo	*	*Xtremolo	*	*	*	*	*	*	*	*
=51	=51	=51	=51	=51	=51	=51	=51	=51	=51	=51	=51	=51	=51	=51	=51
4A\ 4AA\	.	.	4c/ 4C/	.	4cc\ 4e\	.	4ccc\ 4ee\	.	4cc\	-cem	1ryy	1ryy	4a/	4ccc\	.
!LO:TX:a:t=unis&colon;	!	!	!	!	!	!	!	!	!	!	!	!	!	!	!
8AA/L	x	.	8A/L	.	8A/L	.	8a/L	.	4r	.	.	.	8a/L	4r	.
8BB/J	.	.	8B/J	.	8B/J	.	8b/J	.	.	.	.	.	8b/J	.	.
8C/L	.	.	8c/L	.	8c/L	.	8cc/L	.	2r	.	.	.	8cc/L	2r	.
8BB/	.	.	8B/	.	8B/	.	8b/	.	.	.	.	.	8b/	.	.
8C/	.	.	8c/	.	8c/	.	8cc/	.	.	.	.	.	8cc/	.	.
8AA/J	.	.	8B/J	.	8A/J	.	8a/J	.	.	.	.	.	8a/J	.	.
=52	=52	=52	=52	=52	=52	=52	=52	=52	=52	=52	=52	=52	=52	=52	=52
*	*	*	*tremolo	*	*tremolo	*	*tremolo	*	*	*	*	*	*	*	*
2D/ 2DD/	5 3	.	16d/ 16A/LL	.	16a/ 16f/LL	.	16ddd\ 16dd\LL	.	1dd\	pa-	1ryy	1ryy	[1dd\	1ddd\	.
.	.	.	16d/ 16A/	.	16a/ 16f/	.	16ddd\ 16dd\	.	.	.	.	.	.	.	.
.	.	.	16d/ 16A/	.	16a/ 16f/	.	16ddd\ 16dd\	.	.	.	.	.	.	.	.
.	.	.	16d/ 16A/	.	16a/ 16f/	.	16ddd\ 16dd\	.	.	.	.	.	.	.	.
.	.	.	16d/ 16A/	.	16a/ 16f/	.	16ddd\ 16dd\	.	.	.	.	.	.	.	.
.	.	.	16d/ 16A/	.	16a/ 16f/	.	16ddd\ 16dd\	.	.	.	.	.	.	.	.
.	.	.	16d/ 16A/	.	16a/ 16f/	.	16ddd\ 16dd\	.	.	.	.	.	.	.	.
.	.	.	16d/ 16A/	.	16a/ 16f/JJ	.	16ddd\ 16dd\	.	.	.	.	.	.	.	.
4.D/ 4.DD/	_ _	.	16d/ 16A/	.	16a/ 16f/LL	.	16ddd\ 16dd\	.	.	.	.	.	.	.	.
.	.	.	16d/ 16A/	.	16a/ 16f/	.	16ddd\ 16dd\	.	.	.	.	.	.	.	.
.	.	.	16d/ 16A/	.	16a/ 16f/	.	16ddd\ 16dd\	.	.	.	.	.	.	.	.
.	.	.	16d/ 16A/	.	16a/ 16f/	.	16ddd\ 16dd\	.	.	.	.	.	.	.	.
.	.	.	16d/ 16A/	.	16a/ 16f/	.	16ddd\ 16dd\	.	.	.	.	.	.	.	.
.	.	.	16d/ 16A/	.	16a/ 16f/	.	16ddd\ 16dd\	.	.	.	.	.	.	.	.
8D/ 8DD/	.	.	16d/ 16A/	.	16a/ 16f/	.	16ddd\ 16dd\	.	.	.	.	.	.	.	.
.	.	.	16d/ 16A/JJ	.	16a/ 16f/JJ	.	16ddd\ 16dd\JJ	.	.	.	.	.	.	.	.
*	*	*	*Xtremolo	*	*Xtremolo	*	*Xtremolo	*	*	*	*	*	*	*	*
=53	=53	=53	=53	=53	=53	=53	=53	=53	=53	=53	=53	=53	=53	=53	=53
4D/ 4DD/	.	.	4d/ 4A/	.	4a/ 4f/	.	4ddd\ 4dd\	.	4dd\	-cem	1ryy	1ryy	4dd\]	4ddd\	.
8D\L	x	.	8D/L	.	8d/L	.	8d/L	.	4r	.	.	.	8d/L	4r	.
!LO:TX:a:t=uniso&colon;	!	!	!	!	!	!	!	!	!	!	!	!	!	!	!
8E\J	.	.	8E/J	.	8e/J	.	8e/J	.	.	.	.	.	8e/J	.	.
8F\L	.	.	8F/L	.	8f/L	.	8f/L	.	2r	.	.	.	8f/L	2r	.
8E\	.	.	8E/	.	8e/	.	8e/	.	.	.	.	.	8e/	.	.
8F\	.	.	8F/	.	8f/	.	8f/	.	.	.	.	.	8f/	.	.
8D\J	.	.	8D/J	.	8e/J	.	8d/J	.	.	.	.	.	8d/J	.	.
=54	=54	=54	=54	=54	=54	=54	=54	=54	=54	=54	=54	=54	=54	=54	=54
*	*	*	*tremolo	*	*tremolo	*	*tremolo	*	*	*	*	*	*	*	*
2G\ 2GG\	7	.	16f/ 16G/LL	.	16b/ 16d/LL	.	16ddd\ 16dd\LL	.	1dd\	pa-	1ryy	1ryy	[1dd\	1ddd\	.
.	.	.	16f/ 16G/	.	16b/ 16d/	.	16ddd\ 16dd\	.	.	.	.	.	.	.	.
.	.	.	16f/ 16G/	.	16b/ 16d/	.	16ddd\ 16dd\	.	.	.	.	.	.	.	.
.	.	.	16f/ 16G/	.	16b/ 16d/	.	16ddd\ 16dd\	.	.	.	.	.	.	.	.
.	.	.	16f/ 16G/	.	16b/ 16d/	.	16ddd\ 16dd\	.	.	.	.	.	.	.	.
.	.	.	16f/ 16G/	.	16b/ 16d/	.	16ddd\ 16dd\	.	.	.	.	.	.	.	.
.	_	.	16f/ 16G/	.	16b/ 16d/	.	16ddd\ 16dd\	.	.	.	.	.	.	.	.
.	.	.	16f/ 16G/	.	16b/ 16d/JJ	.	16ddd\ 16dd\	.	.	.	.	.	.	.	.
4.G\ 4.GG\	.	.	16f/ 16G/	.	16b/ 16d/LL	.	16ddd\ 16dd\	.	.	.	.	.	.	.	.
.	.	.	16f/ 16G/	.	16b/ 16d/	.	16ddd\ 16dd\	.	.	.	.	.	.	.	.
.	.	.	16f/ 16G/	.	16b/ 16d/	.	16ddd\ 16dd\	.	.	.	.	.	.	.	.
.	.	.	16f/ 16G/	.	16b/ 16d/	.	16ddd\ 16dd\	.	.	.	.	.	.	.	.
.	.	.	16f/ 16G/	.	16b/ 16d/	.	16ddd\ 16dd\	.	.	.	.	.	.	.	.
.	.	.	16f/ 16G/	.	16b/ 16d/	.	16ddd\ 16dd\	.	.	.	.	.	.	.	.
8G\ 8GG\	.	.	16f/ 16G/	.	16b/ 16d/	.	16ddd\ 16dd\	.	.	.	.	.	.	.	.
.	.	.	16f/ 16G/JJ	.	16b/ 16d/JJ	.	16ddd\ 16dd\JJ	.	.	.	.	.	.	.	.
*	*	*	*Xtremolo	*	*Xtremolo	*	*Xtremolo	*	*	*	*	*	*	*	*
=55	=55	=55	=55	=55	=55	=55	=55	=55	=55	=55	=55	=55	=55	=55	=55
4G\ 4GG\	.	.	4f/ 4A/	.	4b/ 4d/	.	4ddd\ 4dd\	.	4dd\	-cem	1ryy	1ryy	4dd\]	4ddd\	.
!LO:TX:a:t=uniso&colon;	!	!	!	!	!	!	!	!	!	!	!	!	!	!	!
8G\L	x	.	8G/L	.	8g/L	.	8g/L	.	4r	.	.	.	8g/L	4r	.
8A\J	.	.	8A/J	.	8a/J	.	8a/J	.	.	.	.	.	8a/J	.	.
!	!	!	!LO:LB:g=original	!	!	!	!	!	!LO:LB:g=original	!	!	!	!	!	!
8G\L	.	.	8G/L	.	8g/L	.	8g/L	.	2r	.	.	.	8g/L	2r	.
8F\	.	.	8F/	.	8f/	.	8f/	.	.	.	.	.	8f/	.	.
8E\	.	.	8E/	.	8e/	.	8e/	.	.	.	.	.	8e/	.	.
8D\J	.	.	8D/J	.	8d/J	.	8d/J	.	.	.	.	.	8d/J	.	.
=56:|!	=56	=56	=56:|!	=56	=56	=56	=56:|!	=56	=56	=56	=56	=56	=56	=56:|!	=56
*	*	*	*tremolo	*	*tremolo	*	*tremolo	*	*	*	*	*	*	*	*
!LO:TX:t=P:problem=t.56-63 zapisane jako repetycja	!	!	!LO:TX:t=P:problem=t.56-63 zapisane jako repetycja	!	!	!	!LO:TX:t=P:problem=t. 56-63 zapisane jako repetycja	!	!	!	!	!	!LO:TX:t=P:problem=t. 56-63 zapisane jako repetycja	!LO:TX:t=P:problem=t. 56-63 zapisane jako repetycja	!
2C/yy	5 3	fyy	16c/yy 16C/yyLL	.	16cc\ 16e\LL	.	16ccc\LLyy	.	1cc\	Do-	1ryy	1ryy	1cc\yy	1ccc\yy	.
.	.	.	16c/yy 16C/yy	.	16cc\ 16e\	.	16ccc\yy	.	.	.	.	.	.	.	.
.	.	.	16c/yy 16C/yy	.	16cc\ 16e\	.	16ccc\yy	.	.	.	.	.	.	.	.
.	.	.	16c/yy 16C/yy	.	16cc\ 16e\	.	16ccc\yy	.	.	.	.	.	.	.	.
.	.	.	16c/yy 16C/yy	.	16cc\ 16e\	.	16ccc\yy	.	.	.	.	.	.	.	.
.	.	.	16c/yy 16C/yy	.	16cc\ 16e\	.	16ccc\yy	.	.	.	.	.	.	.	.
.	.	.	16c/yy 16C/yy	.	16cc\ 16e\	.	16ccc\yy	.	.	.	.	.	.	.	.
.	.	.	16c/yy 16C/yy	.	16cc\ 16e\JJ	.	16ccc\yy	.	.	.	.	.	.	.	.
4.C/yy	_ _	.	16c/yy 16C/yy	.	16cc\ 16e\LL	.	16ccc\yy	.	.	.	.	.	.	.	.
.	.	.	16c/yy 16C/yy	.	16cc\ 16e\	.	16ccc\yy	.	.	.	.	.	.	.	.
.	.	.	16c/yy 16C/yy	.	16cc\ 16e\	.	16ccc\yy	.	.	.	.	.	.	.	.
.	.	.	16c/yy 16C/yy	.	16cc\ 16e\	.	16ccc\yy	.	.	.	.	.	.	.	.
.	.	.	16c/yy 16C/yy	.	16cc\ 16e\	.	16ccc\yy	.	.	.	.	.	.	.	.
.	.	.	16c/yy 16C/yy	.	16cc\ 16e\	.	16ccc\yy	.	.	.	.	.	.	.	.
8C/yy	.	.	16c/yy 16C/yy	.	16cc\ 16e\	.	16ccc\yy	.	.	.	.	.	.	.	.
.	.	.	16c/yy 16C/yyJJ	.	16cc\ 16e\JJ	.	16ccc\JJyy	.	.	.	.	.	.	.	.
*	*	*	*Xtremolo	*	*Xtremolo	*	*Xtremolo	*	*	*	*	*	*	*	*
=57	=57	=57	=57	=57	=57	=57	=57	=57	=57	=57	=57	=57	=57	=57	=57
4C/yy	.	.	4c/yy 4C/yy	.	4cc/ 4e/	.	4ccc\yy 4ee\yy	.	4cc\	-na	1ryy	1ryy	4cc\yy	4ccc\yy	.
!LO:TX:a:t=unisono	!	!	!	!	!	!	!	!	!	!	!	!	!	!	!
8C/Lyy	x	.	8c/Lyy	.	8c/L	.	8cc\Lyy	.	4r	.	.	.	8cc\Lyy	4ryy	.
8D/Jyy	.	.	8d/Jyy	.	8d/J	.	8dd\Jyy	.	.	.	.	.	8dd\Jyy	.	.
8E/Lyy	.	.	8e/Lyy	.	8e/L	.	8ee\Lyy	.	2r	.	.	.	8ee\Lyy	2ryy	.
8D/yy	.	.	8d/yy	.	8d/	.	8dd\yy	.	.	.	.	.	8dd\yy	.	.
8C/yy	.	.	8c/yy	.	8c/	.	8cc\yy	.	.	.	.	.	8cc\yy	.	.
8BB/Jyy	.	.	8B/Jyy	.	8B/J	.	8b\Jyy	.	.	.	.	.	8b\Jyy	.	.
!LO:LB:g=original	!	!	!	!	!LO:LB:g=original	!	!	!	!	!	!	!	!	!	!
=58	=58	=58	=58	=58	=58	=58	=58	=58	=58	=58	=58	=58	=58	=58	=58
*	*	*	*tremolo	*	*tremolo	*	*tremolo	*	*	*	*	*	*	*	*
2A\yy 2AA\yy	5 3	.	16c/yy 16C/yyLL	.	16cc/ 16e/LL	.	16ccc\yy 16ee\yyLL	.	1cc\	no-	1ryy	1ryy	1a/yy	1ccc\yy	.
.	.	.	16c/yy 16C/yy	.	16cc/ 16e/	.	16ccc\yy 16ee\yy	.	.	.	.	.	.	.	.
.	.	.	16c/yy 16C/yy	.	16cc/ 16e/	.	16ccc\yy 16ee\yy	.	.	.	.	.	.	.	.
.	.	.	16c/yy 16C/yy	.	16cc/ 16e/	.	16ccc\yy 16ee\yy	.	.	.	.	.	.	.	.
.	.	.	16c/yy 16C/yy	.	16cc/ 16e/	.	16ccc\yy 16ee\yy	.	.	.	.	.	.	.	.
.	.	.	16c/yy 16C/yy	.	16cc/ 16e/	.	16ccc\yy 16ee\yy	.	.	.	.	.	.	.	.
.	.	.	16c/yy 16C/yy	.	16cc/ 16e/	.	16ccc\yy 16ee\yy	.	.	.	.	.	.	.	.
.	.	.	16c/yy 16C/yy	.	16cc/ 16e/JJ	.	16ccc\yy 16ee\yy	.	.	.	.	.	.	.	.
4.A\yy 4.AA\yy	_ _	.	16c/yy 16C/yy	.	16cc/ 16e/LL	.	16ccc\yy 16ee\yy	.	.	.	.	.	.	.	.
.	.	.	16c/yy 16C/yy	.	16cc/ 16e/	.	16ccc\yy 16ee\yy	.	.	.	.	.	.	.	.
.	.	.	16c/yy 16C/yy	.	16cc/ 16e/	.	16ccc\yy 16ee\yy	.	.	.	.	.	.	.	.
.	.	.	16c/yy 16C/yy	.	16cc/ 16e/	.	16ccc\yy 16ee\yy	.	.	.	.	.	.	.	.
.	.	.	16c/yy 16C/yy	.	16cc/ 16e/	.	16ccc\yy 16ee\yy	.	.	.	.	.	.	.	.
.	.	.	16c/yy 16C/yy	.	16cc/ 16e/	.	16ccc\yy 16ee\yy	.	.	.	.	.	.	.	.
8A\yy 8AA\yy	.	.	16c/yy 16C/yy	.	16cc/ 16e/	.	16ccc\yy 16ee\yy	.	.	.	.	.	.	.	.
.	.	.	16c/yy 16C/yyJJ	.	16cc/ 16e/JJ	.	16ccc\yy 16ee\yyJJ	.	.	.	.	.	.	.	.
*	*	*	*Xtremolo	*	*Xtremolo	*	*Xtremolo	*	*	*	*	*	*	*	*
=59	=59	=59	=59	=59	=59	=59	=59	=59	=59	=59	=59	=59	=59	=59	=59
4A\yy 4AA\yy	.	.	4c/yy 4C/yy	.	4cc/ 4e/	.	4ccc\yy 4ee\yy	.	4cc\	-bis	1ryy	1ryy	4a/yy	4ccc\yy	.
!LO:TX:a:t=unis&colon;	!	!	!	!	!	!	!	!	!	!	!	!	!	!	!
8AA/Lyy	x	.	8A/Lyy	.	8A/L	.	8a/Lyy	.	4r	.	.	.	8a/Lyy	4ryy	.
8BB/Jyy	.	.	8B/Jyy	.	8B/J	.	8b/Jyy	.	.	.	.	.	8b/Jyy	.	.
8C/Lyy	.	.	8c/Lyy	.	8c/L	.	8cc/Lyy	.	2r	.	.	.	8cc/Lyy	2ryy	.
8BB/yy	.	.	8B/yy	.	8B/	.	8b/yy	.	.	.	.	.	8b/yy	.	.
8C/yy	.	.	8c/yy	.	8c/	.	8cc/yy	.	.	.	.	.	8cc/yy	.	.
8AA/Jyy	.	.	8B/Jyy	.	8B/J	.	8a/Jyy	.	.	.	.	.	8a/Jyy	.	.
!	!	!	!	!	!LO:LB:g=original	!	!	!	!	!	!	!	!	!	!
=60	=60	=60	=60	=60	=60	=60	=60	=60	=60	=60	=60	=60	=60	=60	=60
*	*	*	*tremolo	*	*tremolo	*	*tremolo	*	*	*	*	*	*	*	*
2D/yy 2DD/yy	5 3	.	16d/yy 16A/yyLL	.	16a/ 16f/LL	.	16ddd\yy 16dd\yyLL	.	1dd\	pa-	1ryy	1ryy	[yy1dd\yy	1ddd\yy	.
.	.	.	16d/yy 16A/yy	.	16a/ 16f/	.	16ddd\yy 16dd\yy	.	.	.	.	.	.	.	.
.	.	.	16d/yy 16A/yy	.	16a/ 16f/	.	16ddd\yy 16dd\yy	.	.	.	.	.	.	.	.
.	.	.	16d/yy 16A/yy	.	16a/ 16f/	.	16ddd\yy 16dd\yy	.	.	.	.	.	.	.	.
.	.	.	16d/yy 16A/yy	.	16a/ 16f/	.	16ddd\yy 16dd\yy	.	.	.	.	.	.	.	.
.	.	.	16d/yy 16A/yy	.	16a/ 16f/	.	16ddd\yy 16dd\yy	.	.	.	.	.	.	.	.
.	.	.	16d/yy 16A/yyyy	.	16a/ 16f/	.	16ddd\yy 16dd\yy	.	.	.	.	.	.	.	.
.	.	.	16d/yy 16A/yy	.	16a/ 16f/JJ	.	16ddd\yy 16dd\yy	.	.	.	.	.	.	.	.
4.D/yy 4.DD/yy	_ _	.	16d/yy 16A/yy	.	16a/ 16f/LL	.	16ddd\yy 16dd\yy	.	.	.	.	.	.	.	.
.	.	.	16d/yy 16A/yy	.	16a/ 16f/	.	16ddd\yy 16dd\yy	.	.	.	.	.	.	.	.
.	.	.	16d/yy 16A/yy	.	16a/ 16f/	.	16ddd\yy 16dd\yy	.	.	.	.	.	.	.	.
.	.	.	16d/yy 16A/yy	.	16a/ 16f/	.	16ddd\yy 16dd\yy	.	.	.	.	.	.	.	.
.	.	.	16d/yy 16A/yy	.	16a/ 16f/	.	16ddd\yy 16dd\yy	.	.	.	.	.	.	.	.
.	.	.	16d/yy 16A/yy	.	16a/ 16f/	.	16ddd\yy 16dd\yy	.	.	.	.	.	.	.	.
8D/yy 8DD/yy	.	.	16d/yy 16A/yy	.	16a/ 16f/	.	16ddd\yy 16dd\yy	.	.	.	.	.	.	.	.
.	.	.	16d/yy 16A/yyJJ	.	16a/ 16f/JJ	.	16ddd\yy 16dd\yyJJ	.	.	.	.	.	.	.	.
*	*	*	*Xtremolo	*	*Xtremolo	*	*Xtremolo	*	*	*	*	*	*	*	*
=61	=61	=61	=61	=61	=61	=61	=61	=61	=61	=61	=61	=61	=61	=61	=61
4D/yy 4DD/yy	.	.	4d/yy 4A/yy	.	4a/ 4f/	.	4ddd\yy 4dd\yy	.	4dd\	-cem	1ryy	1ryy	4dd\]yy	4ddd\yy	.
8D\Lyy	x	.	8D/Lyy	.	8d/L	.	8d/Lyy	.	4r	.	.	.	8d/Lyy	4ryy	.
!LO:TX:a:t=uniso&colon;	!	!	!	!	!	!	!	!	!	!	!	!	!	!	!
8E\Jyy	.	.	8E/Jyy	.	8e/J	.	8e/Jyy	.	.	.	.	.	8e/Jyy	.	.
8F\Lyy	.	.	8F/Lyy	.	8f/L	.	8f/Lyy	.	2r	.	.	.	8f/Lyy	2ryy	.
8E\yy	.	.	8E/yy	.	8e/	.	8e/yy	.	.	.	.	.	8e/yy	.	.
8F\yy	.	.	8F/yy	.	8f/	.	8f/yy	.	.	.	.	.	8f/yy	.	.
8D\Jyy	.	.	8D/Jyy	.	8d/J	.	8d/Jyy	.	.	.	.	.	8d/Jyy	.	.
=62	=62	=62	=62	=62	=62	=62	=62	=62	=62	=62	=62	=62	=62	=62	=62
*	*	*	*tremolo	*	*tremolo	*	*tremolo	*	*	*	*	*	*	*	*
2G\yy 2GG\yy	7	.	16f/yy 16G/yyLL	.	16b/ 16d/LL	.	16ddd\yy 16dd\yyLL	.	1dd\	pa-	1ryy	1ryy	[yy1dd\yy	1ddd\yy	.
.	.	.	16f/yy 16G/yy	.	16b/ 16d/	.	16ddd\yy 16dd\yy	.	.	.	.	.	.	.	.
.	.	.	16f/yy 16G/yy	.	16b/ 16d/	.	16ddd\yy 16dd\yy	.	.	.	.	.	.	.	.
.	.	.	16f/yy 16G/yy	.	16b/ 16d/	.	16ddd\yy 16dd\yy	.	.	.	.	.	.	.	.
.	.	.	16f/yy 16G/yy	.	16b/ 16d/	.	16ddd\yy 16dd\yy	.	.	.	.	.	.	.	.
.	.	.	16f/yy 16G/yy	.	16b/ 16d/	.	16ddd\yy 16dd\yy	.	.	.	.	.	.	.	.
.	.	.	16f/yy 16G/yy	.	16b/ 16d/	.	16ddd\yy 16dd\yy	.	.	.	.	.	.	.	.
.	.	.	16f/yy 16G/yy	.	16b/ 16d/JJ	.	16ddd\yy 16dd\yy	.	.	.	.	.	.	.	.
4.G\yy 4.GG\yy	_	.	16f/yy 16G/yy	.	16b/ 16d/LL	.	16ddd\yy 16dd\yy	.	.	.	.	.	.	.	.
.	.	.	16f/yy 16G/yy	.	16b/ 16d/	.	16ddd\yy 16dd\yy	.	.	.	.	.	.	.	.
.	.	.	16f/yy 16G/yy	.	16b/ 16d/	.	16ddd\yy 16dd\yy	.	.	.	.	.	.	.	.
.	.	.	16f/yy 16G/yy	.	16b/ 16d/	.	16ddd\yy 16dd\yy	.	.	.	.	.	.	.	.
.	.	.	16f/yy 16G/yy	.	16b/ 16d/	.	16ddd\yy 16dd\yy	.	.	.	.	.	.	.	.
.	.	.	16f/yy 16G/yy	.	16b/ 16d/	.	16ddd\yy 16dd\yy	.	.	.	.	.	.	.	.
8G\yy 8GG\yy	.	.	16f/yy 16G/yy	.	16b/ 16d/	.	16ddd\yy 16dd\yy	.	.	.	.	.	.	.	.
.	.	.	16f/yy 16G/yyJJ	.	16b/ 16d/JJ	.	16ddd\yy 16dd\yyJJ	.	.	.	.	.	.	.	.
*	*	*	*Xtremolo	*	*Xtremolo	*	*Xtremolo	*	*	*	*	*	*	*	*
=63	=63	=63	=63	=63	=63	=63	=63	=63	=63	=63	=63	=63	=63	=63	=63
4G\yy 4GG\yy	.	.	4f/yy 4A/yy	.	4b/ 4d/	.	4ddd\yy 4dd\yy	.	4dd\	-cem	1ryy	1ryy	4dd\]yy	4ddd\yy	.
!LO:TX:a:t=uniso&colon;	!	!	!	!	!	!	!	!	!	!	!	!	!	!	!
8G\Lyy	x	.	8G/Lyy	.	8g/L	.	8g/Lyy	.	4r	.	.	.	8g/Lyy	4ryy	.
8A\Jyy	.	.	8A/Jyy	.	8a/J	.	8a/Jyy	.	.	.	.	.	8a/Jyy	.	.
8G\Lyy	.	.	8G/Lyy	.	8g/L	.	8g/Lyy	.	2r	.	.	.	8g/Lyy	2ryy	.
8F\yy	.	.	8F/yy	.	8f/	.	8f/yyyy	.	.	.	.	.	8f/yy	.	.
8E\yy	.	.	8E/yy	.	8e/	.	8e/yy	.	.	.	.	.	8e/yy	.	.
8D\Jyy	.	.	8D/Jyy	.	8d/J	.	8d/Jyy	.	.	.	.	.	8d/Jyy	.	.
=64	=64	=64	=64	=64	=64	=64	=64	=64	=64	=64	=64	=64	=64	=64	=64
*	*	*	*tremolo	*	*tremolo	*	*tremolo	*	*	*	*	*	*	*	*
!	!	!	!	!	!	!	!	!	!LO:TX:a:t=6	!	!	!	!	!	!
4C\	5 3	.	16c/LL	.	16e/ 16G/LL	.	16eee\LL	.	00r	.	1ryy	1ryy	2cc\	2eee\	.
.	.	.	16c/	.	16e/ 16G/	.	16eee\	.	.	.	.	.	.	.	.
.	.	.	16c/	.	16e/ 16G/	.	16eee\	.	.	.	.	.	.	.	.
.	.	.	16c/	.	16e/ 16G/	.	16eee\	.	.	.	.	.	.	.	.
4E\	_ _	.	16c/	.	16e/ 16G/	.	16eee\	.	.	.	.	.	.	.	.
.	.	.	16c/	.	16e/ 16G/	.	16eee\	.	.	.	.	.	.	.	.
.	.	.	16c/	.	16e/ 16G/	.	16eee\	.	.	.	.	.	.	.	.
.	.	.	16c/JJ	.	16e/ 16G/JJ	.	16eee\JJ	.	.	.	.	.	.	.	.
4A\	5 3	.	16c/LL	.	16e/ 16A/LL	.	16ccc\LL	.	.	.	.	.	2cc\	2ccc\	.
.	.	.	16c/	.	16e/ 16A/	.	16ccc\	.	.	.	.	.	.	.	.
.	.	.	16c/	.	16e/ 16A/	.	16ccc\	.	.	.	.	.	.	.	.
.	.	.	16c/	.	16e/ 16A/	.	16ccc\	.	.	.	.	.	.	.	.
4G\	_ _	.	16c/	.	16e/ 16A/	.	16ccc\	.	.	.	.	.	.	.	.
.	.	.	16c/	.	16e/ 16A/	.	16ccc\	.	.	.	.	.	.	.	.
.	.	.	16c/	.	16e/ 16A/	.	16ccc\	.	.	.	.	.	.	.	.
.	.	.	16c/JJ	.	16e/ 16A/JJ	.	16ccc\JJ	.	.	.	.	.	.	.	.
=65	=65	=65	=65	=65	=65	=65	=65	=65	=65	=65	=65	=65	=65	=65	=65
4F\	6 3	.	16d/LL	.	16f/ 16A/LL	.	16ddd\ 16dd\LL	.	.	.	1ryy	1ryy	2dd\	2ddd\	.
.	.	.	16d/	.	16f/ 16A/	.	16ddd\ 16dd\	.	.	.	.	.	.	.	.
.	.	.	16d/	.	16f/ 16A/	.	16ddd\ 16dd\	.	.	.	.	.	.	.	.
.	.	.	16d/	.	16f/ 16A/	.	16ddd\ 16dd\	.	.	.	.	.	.	.	.
4D\	_ _	.	16d/	.	16f/ 16A/	.	16ddd\ 16dd\	.	.	.	.	.	.	.	.
.	.	.	16d/	.	16f/ 16A/	.	16ddd\ 16dd\	.	.	.	.	.	.	.	.
.	.	.	16d/	.	16f/ 16A/	.	16ddd\ 16dd\	.	.	.	.	.	.	.	.
.	.	.	16d/JJ	.	16f/ 16A/JJ	.	16ddd\ 16dd\JJ	.	.	.	.	.	.	.	.
4G\	x 7	.	16d/ 16B/LL	.	16f/ 16G/LL	.	16bb\ 16dd\LL	.	.	.	.	.	2dd\	2bb\	.
.	.	.	16d/ 16B/	.	16f/ 16G/	.	16bb\ 16dd\	.	.	.	.	.	.	.	.
.	.	.	16d/ 16B/	.	16f/ 16G/	.	16bb\ 16dd\	.	.	.	.	.	.	.	.
.	.	.	16d/ 16B/	.	16f/ 16G/	.	16bb\ 16dd\	.	.	.	.	.	.	.	.
4G\	x _	.	16d/ 16B/	.	16f/ 16G/	.	16bb\ 16dd\	.	.	.	.	.	.	.	.
.	.	.	16d/ 16B/	.	16f/ 16G/	.	16bb\ 16dd\	.	.	.	.	.	.	.	.
.	.	.	16d/ 16B/	.	16f/ 16G/	.	16bb\ 16dd\	.	.	.	.	.	.	.	.
.	.	.	16d/ 16B/JJ	.	16f/ 16G/JJ	.	16bb\ 16dd\JJ	.	.	.	.	.	.	.	.
!	!	!	!	!	!	!	!	!	!	!	!	!	!LO:LB:g=original	!	!
=66	=66	=66	=66	=66	=66	=66	=66	=66	=66	=66	=66	=66	=66	=66	=66
4C\	5 3	.	16c/LL	.	16e/ 16G/LL	.	16eee\LL	.	.	.	1ryy	1ryy	2cc\	2eee\	.
.	.	.	16c/	.	16e/ 16G/	.	16eee\	.	.	.	.	.	.	.	.
.	.	.	16c/	.	16e/ 16G/	.	16eee\	.	.	.	.	.	.	.	.
.	.	.	16c/	.	16e/ 16G/	.	16eee\	.	.	.	.	.	.	.	.
4E\	_ _	.	16c/	.	16e/ 16G/	.	16eee\	.	.	.	.	.	.	.	.
.	.	.	16c/	.	16e/ 16G/	.	16eee\	.	.	.	.	.	.	.	.
.	.	.	16c/	.	16e/ 16G/	.	16eee\	.	.	.	.	.	.	.	.
.	.	.	16c/JJ	.	16e/ 16G/JJ	.	16eee\JJ	.	.	.	.	.	.	.	.
4A\	5 3	.	16c/LL	.	16e/ 16A/LL	.	16ccc\LL	.	.	.	.	.	2cc\	2ccc\	.
.	.	.	16c/	.	16e/ 16A/	.	16ccc\	.	.	.	.	.	.	.	.
.	.	.	16c/	.	16e/ 16A/	.	16ccc\	.	.	.	.	.	.	.	.
.	.	.	16c/	.	16e/ 16A/	.	16ccc\	.	.	.	.	.	.	.	.
4G\	_ _	.	16c/	.	16e/ 16A/	.	16ccc\	.	.	.	.	.	.	.	.
.	.	.	16c/	.	16e/ 16A/	.	16ccc\	.	.	.	.	.	.	.	.
.	.	.	16c/	.	16e/ 16A/	.	16ccc\	.	.	.	.	.	.	.	.
.	.	.	16c/JJ	.	16e/ 16A/JJ	.	16ccc\JJ	.	.	.	.	.	.	.	.
!	!	!	!	!	!	!	!	!	!	!	!	!	!	!LO:LB:g=original	!
=67	=67	=67	=67	=67	=67	=67	=67	=67	=67	=67	=67	=67	=67	=67	=67
4F\	6 3	.	16d/LL	.	16f/ 16A/LL	.	16ddd\ 16dd\LL	.	.	.	1ryy	1ryy	2dd\	2ddd\	.
.	.	.	16d/	.	16f/ 16A/	.	16ddd\ 16dd\	.	.	.	.	.	.	.	.
.	.	.	16d/	.	16f/ 16A/	.	16ddd\ 16dd\	.	.	.	.	.	.	.	.
.	.	.	16d/	.	16f/ 16A/	.	16ddd\ 16dd\	.	.	.	.	.	.	.	.
4D\	_ _	.	16d/	.	16f/ 16A/	.	16ddd\ 16dd\	.	.	.	.	.	.	.	.
.	.	.	16d/	.	16f/ 16A/	.	16ddd\ 16dd\	.	.	.	.	.	.	.	.
.	.	.	16d/	.	16f/ 16A/	.	16ddd\ 16dd\	.	.	.	.	.	.	.	.
.	.	.	16d/JJ	.	16f/ 16A/JJ	.	16ddd\ 16dd\JJ	.	.	.	.	.	.	.	.
4G\	x 7	.	16d/ 16B/LL	.	16f/ 16G/LL	.	16bb\ 16dd\LL	.	.	.	.	.	2dd\	2bb\	.
.	.	.	16d/ 16B/	.	16f/ 16G/	.	16bb\ 16dd\	.	.	.	.	.	.	.	.
.	.	.	16d/ 16B/	.	16f/ 16G/	.	16bb\ 16dd\	.	.	.	.	.	.	.	.
.	.	.	16d/ 16B/	.	16f/ 16G/	.	16bb\ 16dd\	.	.	.	.	.	.	.	.
4GG/	.	.	16d/ 16B/	.	16f/ 16G/	.	16bb\ 16dd\	.	.	.	.	.	.	.	.
.	.	.	16d/ 16B/	.	16f/ 16G/	.	16bb\ 16dd\	.	.	.	.	.	.	.	.
.	.	.	16d/ 16B/	.	16f/ 16G/	.	16bb\ 16dd\	.	.	.	.	.	.	.	.
.	.	.	16d/ 16B/JJ	.	16f/ 16G/JJ	.	16bb\ 16dd\JJ	.	.	.	.	.	.	.	.
*	*	*	*Xtremolo	*	*Xtremolo	*	*Xtremolo	*	*	*	*	*	*	*	*
=68!|:	=68	=68	=68!|:	=68	=68	=68	=68!|:	=68	=68	=68	=68	=68	=68	=68!|:	=68
!LO:TX:a:t=uniso&colon;	!	!	!	!	!	!	!	!	!	!	!	!	!	!	!
8C\L	.	.	8c/L	.	8e/L 8G/	.	8ccc\L	.	0r	.	1ryy	1ryy	8cc/L	4ccc\	.
8C\	.	.	8C/	.	8c/	.	8cc\	.	.	.	.	.	8c/	.	.
8D\	.	.	8D/	.	8d/	.	8dd\	.	.	.	.	.	8d/	4r	.
8E\J	.	.	8E/J	.	8e/J	.	8ee\J	.	.	.	.	.	8e/J	.	.
8F\L	.	.	8F/L	.	8f/L	.	8ff\L	.	.	.	.	.	8f/L	2r	.
8G\	.	.	8G/	.	8g/	.	8gg\	.	.	.	.	.	8g/	.	.
8A\	.	.	8A/	.	8a/	.	8aa\	.	.	.	.	.	8a/	.	.
8B\J	.	.	8B/J	.	8b/J	.	8bb\J	.	.	.	.	.	8b/J	.	.
!LO:LB:g=original	!	!	!	!	!	!	!	!	!	!	!	!	!	!	!
=69	=69	=69	=69	=69	=69	=69	=69	=69	=69	=69	=69	=69	=69	=69	=69
8c\L	.	.	8c/L	.	8cc/L	.	8ccc\L	.	.	.	1ryy	1ryy	8cc/L	8ccc\L	.
8C\	10	.	8C/	.	8e/	.	8ee\	.	.	.	.	.	8e/	8ee\	.
8D\	_	.	8D/	.	8f/	.	8ff\	.	.	.	.	.	8f/	8ff\	.
8E\J	.	.	8E/J	.	8g/J	.	8gg\J	.	.	.	.	.	8g/J	8gg\J	.
8F\L	.	.	8F/L	.	8a/L	.	8aa\L	.	.	.	.	.	8a/L	8aa\L	.
8G\	.	.	8G/	.	8b/	.	8bb\	.	.	.	.	.	8b/	8bb\	.
8A\	.	.	8A/	.	8cc/	.	8ccc\	.	.	.	.	.	8cc/	8ccc\	.
8B\J	.	.	8B/J	.	8dd/J	.	8ddd\J	.	.	.	.	.	8dd/J	8ddd\J	.
=70	=70	=70	=70	=70	=70	=70	=70	=70	=70	=70	=70	=70	=70	=70	=70
4c\ 4C\	.	.	4c/	.	4ee\	.	4eee\	.	2r	.	1ryy	1ryy	4ee\	4eee\	.
4r	3	.	4r	.	4r	.	4r	.	.	.	.	.	4r	4r	.
2F#X\	-7	.	2e-X\ 2c\	.	2aa\ 2a\	.	2ccc\	.	2cc\	da	.	.	2ee-X\	2ccc\	.
!	!	!	!	!	!LO:LB:g=original	!	!	!	!	!	!	!	!	!	!
=71	=71	=71	=71	=71	=71	=71	=71	=71	=71	=71	=71	=71	=71	=71	=71
2G\	n6 4	.	2g/ 2G/	.	2cc/ 2e/	.	2ccc\	.	(2cc\	pa-	1ryy	1ryy	2een\	2ccc\	.
2GG/	x 7	.	2d/ 2B/	.	2dd/ 2f/	.	2bb\	.	2b\)	.	.	.	2ff\	2bb\	.
=72	=72	=72	=72:|!	=72	=72	=72	=72:|!	=72	=72	=72	=72	=72	=72	=72:|!	=72
!LO:TX:t=P:problem=t. 72-75 zapisane jako repetycja	!	!	!	!	!	!	!	!	!	!	!	!	!	!	!
!LO:TX:a:t=uniso&colon;	!	!	!LO:TX:t=P:problem=t. 72-75 zapisane jako repetycja	!	!	!	!LO:TX:t=P:problem=t. 72-75 zapisane jako repetycja	!	!	!	!	!	!LO:TX:t=P:problem=mixed beam	!LO:TX:t=P:problem=t. 72-75 zapisane jako repetycja	!
8C\Lyy	.	.	8c/Lyy	.	8e/L 8G/	.	8ccc\Lyy	.	4cc\	-cem	1ryy	1ryy	8ee\L	4ccc\yy	.
8C\yy	.	.	8C/yy	.	8c/	.	8cc\yy	.	.	.	.	.	8c/	.	.
8D\yy	.	.	8D/yy	.	8d/	.	8dd\yy	.	4r	.	.	.	8d/	4ryy	.
8E\Jyy	.	.	8E/Jyy	.	8e/J	.	8ee\Jyy	.	.	.	.	.	8e/J	.	.
8F\Lyy	.	.	8F/Lyy	.	8f/L	.	8ff\Lyy	.	2r	.	.	.	8f/L	2ryy	.
8G\yy	.	.	8G/yy	.	8g/	.	8gg\yy	.	.	.	.	.	8g/	.	.
8A\yy	.	.	8A/yy	.	8a/	.	8aa\yy	.	.	.	.	.	8a/	.	.
8B\Jyy	.	.	8B/Jyy	.	8b/J	.	8bb\Jyy	.	.	.	.	.	8b/J	.	.
!LO:LB:g=original	!	!	!	!	!	!	!	!	!	!	!	!	!	!	!
=73	=73	=73	=73	=73	=73	=73	=73	=73	=73	=73	=73	=73	=73	=73	=73
!	!	!	!	!	!	!	!	!	!LO:TX:a:t=1	!	!	!	!	!	!
8c\Lyy	.	.	8c/Lyy	.	8cc/L	.	8ccc\Lyy	.	1r	.	1ryy	1ryy	8cc/L	8ccc\Lyy	.
8C\yy	10	.	8C/yy	.	8e/	.	8ee\yy	.	.	.	.	.	8e/	8ee\yy	.
8D\yy	_	.	8D/yy	.	8f/	.	8ff\yy	.	.	.	.	.	8f/	8ff\yy	.
8E\Jyy	.	.	8E/Jyy	.	8g/J	.	8gg\Jyy	.	.	.	.	.	8g/J	8gg\Jyy	.
8F\Lyy	.	.	8F/Lyy	.	8a/L	.	8aa\Lyy	.	.	.	.	.	8a/L	8aa\Lyy	.
8G\yy	.	.	8G/yy	.	8b/	.	8bb\yy	.	.	.	.	.	8b/	8bb\yy	.
8A\yy	.	.	8A/yy	.	8cc/	.	8ccc\yy	.	.	.	.	.	8cc/	8ccc\yy	.
8B\Jyy	.	.	8B/Jyy	.	8dd/J	.	8ddd\Jyy	.	.	.	.	.	8dd/J	8ddd\Jyy	.
=74	=74	=74	=74	=74	=74	=74	=74	=74	=74	=74	=74	=74	=74	=74	=74
4c\yy 4C\yy	.	.	4c/yy	.	4ee\	.	4eee\yy	.	2r	.	1ryy	1ryy	4ee\	4eee\yy	.
4ryy	x	.	4ryy	.	4r	.	4ryy	.	.	.	.	.	4r	4ryy	.
2F#X\yy	-7	.	2e-X\yy 2c\yy	.	2aa\ 2a\	.	2ccc\yy	.	2cc\	da	.	.	4ee-X\	2ccc\yy	.
.	.	.	.	.	.	.	.	.	.	.	.	.	4ee-\	.	.
!	!	!	!	!	!	!	!	!	!LO:LB:g=original	!	!	!	!	!	!
=75	=75	=75	=75	=75	=75	=75	=75	=75	=75	=75	=75	=75	=75	=75	=75
2G\yy	n6 4	.	2g/yy 2G/yy	.	2cc/ 2e/	.	2ccc\yy	.	(2cc\	pa-	1ryy	1ryy	2een\	2ccc\yy	.
2GG/yy	7	.	2d/yy 2B/yy	.	2dd/ 2f/	.	2bb\yy	.	2b\)	.	.	.	2ff\	2bb\yy	.
!	!	!	!	!	!	!	!	!	!	!	!	!	!LO:LB:g=original	!	!
=76:|!	=76	=76	=76	=76	=76	=76	=76	=76	=76	=76	=76	=76	=76	=76	=76
4C/	5 3	.	4g/ 4G/	.	4cc/ 4e/	.	2ccc\	.	4cc\	-cem	1ryy	1ryy	4ee\	4ccc\	.
4r	.	.	4r	.	4r	.	.	.	4r	.	.	.	4r	4r	.
!LO:TX:a:t=tasto	!	!	!	!	!	!	!	!	!	!	!	!	!	!	!
4.C/	.	.	4.c/ 4.C/	.	4.c/	.	4.c/	.	2r	.	.	.	4.c/	2r	.
8C/	.	.	8c/ 8C/	.	8c/	.	8c/	.	.	.	.	.	8c/	.	.
=77	=77	=77	=77	=77	=77	=77	=77	=77	=77	=77	=77	=77	=77	=77	=77
!	!	!	!	!	!	!	!	!	!LO:TX:a:t=1.	!	!	!	!	!	!
2C/	.	.	2c/ 2C/	.	2c/	.	2c/	.	1r	.	1ryy	1ryy	2c/	1r;	.
!	!	!	!	!	!	!	!LO:TX:b:t=Fine	!	!	!	!	!	!	!	!
2r	.	.	2r	.	2r;	.	2r	.	.	.	.	.	2r	.	.
==	==	==	==	==	==	==	==	==	==	==	==	==	==	==	==
*-	*-	*-	*-	*-	*-	*-	*-	*-	*-	*-	*-	*-	*-	*-	*-
!!!system-decoration: [(s1,s2)][(s3,s4)][(s5)][(s6,s7,s8)]s9
!!!ENC: Marcin Jachim
!!!END: 2020-10-07
!!!ENC: Leszek Kubiak
!!!END: 2022-02-07
!!!YEC: Copyright 2022 Narodowy Instytut Fryderyka Chopina (https://polishscores.org)
!!!YEM: License CC-BY-4.0 (https://creativecommons.org/licenses/by/4.0)
